; GCode generated by RepRap Java Host Software
; Created: 2011-03-10:23-48-23
;#!RECTANGLE: <BOX x:[l:-6.0, h:32.0], y:[l:-6.0, h:32.0]>
;M111 S7
M110 ; Reset the line numbers
G21 ;metric is good!
G90 ;absolute positioning
M140 S65.0 ;set bed temperature and return
T0; select new extruder
M113; set extruder to use pot for PWM
G92 E0 ;zero the extruded length
G28 X0 ;set x 0
G28 Y0 ;set y 0
G1 F1500.0; feed for start of next move
G1 X4.2 Y0.1 F3500.0 ;horizontal move
G1 X138.8 Y4.9 ;horizontal move
G1 X143.0 Y5.0 F1500.0 ;horizontal move
G28 Z0 ;set z 0
M109 S205.0 ;set temperature and wait
G1 F3500.0; feed for start of next move
G1 E1750.0; extruder dwell
G1 F1500.0; feed for start of next move
G1 F18000.0; feed for start of next move
G1 E1690.0; extruder retraction
G1 F1500.0; feed for start of next move
G92 E0 ;zero the extruded length
;#!LAYER: 1/66
G92 E0 ;zero the extruded length
G92 E0 ;zero the extruded length
G92 E0 ;zero the extruded length
T1; select new extruder
M113; set extruder to use pot for PWM
G92 E0 ;zero the extruded length
T0; select new extruder
M113; set extruder to use pot for PWM
G1 F50.0; feed for start of next move
G1 Z0.2 ;z move
T0; select new extruder
M113; set extruder to use pot for PWM
G1 F1500.0; feed for start of next move
G1 X12.0 Y1.6 F3500.0 ;horizontal move
G1 X1.0 Y-1.8 ;horizontal move
G1 X-3.0 Y-3.0 F1500.0 ;horizontal move
G1 F18000.0; feed for start of next move
G1 E60.0; extruder dwell
G1 F1500.0; feed for start of next move
G1 F3500.0; feed for start of next move
G1 E85.0; extruder dwell
G1 F1500.0; feed for start of next move
G1 Y1.2 E89.2 F3500.0 ;horizontal move
G1 Y2.8 E90.8 ;horizontal move
G1 Y7.0 E95.0 F1500.0 ;horizontal move
G1 X-4.0 E96.0 F2156.4 ;horizontal move
G1 X-5.0 E97.0 F1500.0 ;horizontal move
G1 Y2.8 E101.2 F3500.0 ;horizontal move
G1 Y-0.8 E104.8 ;horizontal move
G1 Y-5.0 E109.0 F1500.0 ;horizontal move
G1 X-0.8 E113.2 F3500.0 ;horizontal move
G1 X12.8 E126.8 ;horizontal move
G1 X17.0 E131.0 F1500.0 ;horizontal move
G1 Y-4.0 E132.0 F2156.4 ;horizontal move
G1 Y-3.0 E133.0 F1500.0 ;horizontal move
G1 X12.8 E137.2 F3500.0 ;horizontal move
G1 X1.2 E148.8 ;horizontal move
G1 X-3.0 E153.0 F1500.0 ;horizontal move
G1 F18000.0; feed for start of next move
G1 E93.0; extruder retraction
G1 F1500.0; feed for start of next move
G1 X0.1 Y-0.2 F3500.0 ;horizontal move
G1 X10.5 Y9.6 ;horizontal move
G1 X13.6 Y12.4 F1500.0 ;horizontal move
G1 F18000.0; feed for start of next move
G1 E153.0; extruder dwell
G1 F1500.0; feed for start of next move
G1 X11.3 Y10.2 E156.2 F3150.0 ;horizontal move
G1 X8.4 Y7.3 E160.3 ;horizontal move
G1 X6.1 Y4.9 E163.6 F1396.9 ;horizontal move
G1 X5.6 E164.1 F966.0 ;horizontal move
G1 X7.0 Y3.8 E165.9 F2247.6 ;horizontal move
G1 X8.8 Y2.9 E167.9 F3150.0 ;horizontal move
G1 X9.0 Y2.8 E168.1 ;horizontal move
G1 X9.1 E168.2 F3112.8 ;horizontal move
G1 X9.2 Y2.7 E168.4 F3150.0 ;horizontal move
G1 X10.9 Y2.2 E170.1 ;horizontal move
G1 X11.0 E170.2 F3110.7 ;horizontal move
G1 X11.1 E170.3 F3150.0 ;horizontal move
G1 X13.1 Y2.1 E172.3 ;horizontal move
G1 X13.2 E172.4 ;horizontal move
G1 X15.2 Y2.3 E174.5 ;horizontal move
G1 X15.3 E174.6 ;horizontal move
G1 X16.8 Y2.7 E176.1 ;horizontal move
G1 X17.0 Y2.8 E176.3 F3093.9 ;horizontal move
G1 X17.1 E176.4 F3150.0 ;horizontal move
G1 X19.7 Y4.3 E179.4 ;horizontal move
G1 Y4.4 E179.5 F3125.2 ;horizontal move
G1 X19.8 E179.6 F3150.0 ;horizontal move
G1 X20.9 Y5.3 E181.0 ;horizontal move
G1 Y5.4 E181.1 F3113.5 ;horizontal move
G1 X21.0 Y5.5 E181.3 F3150.0 ;horizontal move
G1 X22.1 Y6.9 E183.1 ;horizontal move
G1 Y7.0 E183.2 F3126.2 ;horizontal move
G1 X22.2 E183.3 F3150.0 ;horizontal move
G1 X23.2 Y9.0 E185.5 ;horizontal move
G1 X23.3 Y9.1 E185.6 F3111.5 ;horizontal move
G1 Y9.2 E185.7 F3150.0 ;horizontal move
G1 X23.7 Y10.7 E187.3 ;horizontal move
G1 X23.8 Y10.9 E187.5 F3090.6 ;horizontal move
G1 Y11.0 E187.6 F3150.0 ;horizontal move
G1 Y15.0 E191.6 ;horizontal move
G1 Y15.2 E191.8 F3080.4 ;horizontal move
G1 X23.7 Y15.4 E192.0 F3150.0 ;horizontal move
G1 X23.3 Y16.9 E193.6 ;horizontal move
G1 X23.2 Y17.0 E193.7 F3108.3 ;horizontal move
G1 Y17.1 E193.8 F3150.0 ;horizontal move
G1 X21.8 Y19.5 E196.6 ;horizontal move
G1 X21.7 Y19.6 E196.8 F3108.3 ;horizontal move
G1 X21.6 Y19.7 E196.9 F3150.0 ;horizontal move
G1 X20.4 Y21.0 E198.7 ;horizontal move
G1 Y21.1 E198.8 F3130.4 ;horizontal move
G1 X19.0 Y22.2 E200.6 F3150.0 ;horizontal move
G1 X18.9 Y22.3 E200.7 F3109.0 ;horizontal move
G1 X18.8 E200.8 F3150.0 ;horizontal move
G1 X17.0 Y23.2 E202.8 ;horizontal move
G1 X16.9 E202.9 F3119.5 ;horizontal move
G1 X16.8 E203.0 F3150.0 ;horizontal move
G1 X14.9 Y23.7 E205.0 ;horizontal move
G1 Y23.8 E205.1 F3126.7 ;horizontal move
G1 X14.8 E205.2 F3150.0 ;horizontal move
G1 X13.0 Y23.9 E207.0 ;horizontal move
G1 X12.9 E207.1 F3112.0 ;horizontal move
G1 X12.8 E207.2 F3150.0 ;horizontal move
G1 X10.6 Y23.7 E209.4 ;horizontal move
G1 X10.5 Y23.6 E209.5 F3118.0 ;horizontal move
G1 X10.4 E209.6 F3150.0 ;horizontal move
G1 X8.6 Y23.0 E211.5 ;horizontal move
G1 X8.5 E211.6 F3116.9 ;horizontal move
G1 X8.4 Y22.9 E211.8 F3150.0 ;horizontal move
G1 X6.6 Y21.9 E213.8 ;horizontal move
G1 X6.5 Y21.8 E214.0 F3129.4 ;horizontal move
G1 X5.4 Y20.9 E215.4 F3150.0 ;horizontal move
G1 X5.3 Y20.8 E215.5 F3114.9 ;horizontal move
G1 X5.2 Y20.7 E215.7 F3150.0 ;horizontal move
G1 X4.0 Y19.3 E217.5 ;horizontal move
G1 Y19.2 E217.6 F3110.2 ;horizontal move
G1 X3.9 Y19.1 E217.8 F3150.0 ;horizontal move
G1 X2.7 Y16.7 E220.4 ;horizontal move
G1 Y16.6 E220.5 ;horizontal move
G1 X2.3 Y15.3 E221.9 ;horizontal move
G1 X2.2 Y15.2 E222.0 F3102.1 ;horizontal move
G1 Y15.1 E222.1 F3150.0 ;horizontal move
G1 X2.0 Y12.6 E224.6 ;horizontal move
G1 Y12.5 E224.7 F3132.0 ;horizontal move
G1 X2.1 Y11.2 E226.1 F3150.0 ;horizontal move
G1 X2.2 Y11.0 E226.3 F3099.0 ;horizontal move
G1 Y10.9 E226.4 F3150.0 ;horizontal move
G1 X3.0 Y8.7 E228.7 ;horizontal move
G1 Y8.6 E228.8 F3110.8 ;horizontal move
G1 X3.1 Y8.5 E229.0 F3150.0 ;horizontal move
G1 X4.5 Y6.2 E231.6 ;horizontal move
G1 Y6.1 E231.7 F3121.0 ;horizontal move
G1 X5.6 Y4.9 E233.4 F2422.8 ;horizontal move
G1 X6.1 E233.9 F2624.6 ;horizontal move
G1 X7.0 Y5.8 E235.1 F3150.0 ;horizontal move
G1 X11.3 Y10.2 E241.3 ;horizontal move
G1 F18000.0; feed for start of next move
G1 E181.3; extruder retraction
G1 F1500.0; feed for start of next move
G1 X13.6 Y12.4 F3500.0 ;horizontal move
G1 F1500.0; feed for start of next move
G1 X16.1 Y15.7 F3500.0 ;horizontal move
G1 X17.5 Y17.7 ;horizontal move
G1 X20.0 Y21.0 F1500.0 ;horizontal move
G1 F18000.0; feed for start of next move
G1 E241.3; extruder dwell
G1 F1500.0; feed for start of next move
G1 X20.3 Y21.2 E241.7 F1751.2 ;horizontal move
G1 X20.6 Y21.5 E242.1 F1432.1 ;horizontal move
G1 X19.5 Y22.4 E243.5 F2329.1 ;horizontal move
G1 X17.8 Y23.3 E245.4 F3150.0 ;horizontal move
G1 X17.4 Y23.5 E245.9 ;horizontal move
G1 X17.3 Y23.6 E246.0 F3113.5 ;horizontal move
G1 X17.2 E246.1 F3150.0 ;horizontal move
G1 X15.1 Y24.2 E248.3 ;horizontal move
G1 X15.0 E248.4 F3124.7 ;horizontal move
G1 X14.9 E248.5 F3150.0 ;horizontal move
G1 X13.3 Y24.4 E250.1 ;horizontal move
G1 X13.2 E250.2 F3114.5 ;horizontal move
G1 X13.1 E250.3 F3150.0 ;horizontal move
G1 X10.5 Y24.1 E252.9 ;horizontal move
G1 X10.4 E253.0 F3112.5 ;horizontal move
G1 X10.3 E253.1 F3150.0 ;horizontal move
G1 X8.4 Y23.4 E255.2 ;horizontal move
G1 X8.3 E255.3 F3103.1 ;horizontal move
G1 X8.2 Y23.3 E255.4 F3150.0 ;horizontal move
G1 X5.8 Y21.8 E258.2 ;horizontal move
G1 X5.7 E258.3 F3108.5 ;horizontal move
G1 X5.6 Y21.7 E258.5 F3150.0 ;horizontal move
G1 X4.4 Y20.5 E260.2 ;horizontal move
G1 Y20.4 E260.3 ;horizontal move
G1 X3.5 Y19.4 E261.6 ;horizontal move
G1 X3.4 Y19.3 E261.8 F3096.0 ;horizontal move
G1 Y19.2 E261.9 F3150.0 ;horizontal move
G1 X2.3 Y17.0 E264.3 ;horizontal move
G1 Y16.9 E264.4 F3128.7 ;horizontal move
G1 X1.8 Y15.2 E266.2 F3150.0 ;horizontal move
G1 X1.7 Y15.1 E266.3 F3113.3 ;horizontal move
G1 Y15.0 E266.4 F3150.0 ;horizontal move
G1 X1.6 Y12.6 E268.8 ;horizontal move
G1 Y12.5 E268.9 F3131.9 ;horizontal move
G1 X1.7 Y11.1 E270.3 F3150.0 ;horizontal move
G1 Y11.0 E270.4 F3090.1 ;horizontal move
G1 Y10.8 E270.6 F3150.0 ;horizontal move
G1 X2.7 Y8.2 E273.4 ;horizontal move
G1 Y8.1 E273.5 ;horizontal move
G1 X3.7 Y6.4 E275.5 ;horizontal move
G1 Y6.3 E275.6 F3098.5 ;horizontal move
G1 X3.8 Y6.2 E275.7 F3150.0 ;horizontal move
G1 X5.4 Y4.5 E278.1 ;horizontal move
G1 X5.5 Y4.4 E278.2 F3126.9 ;horizontal move
G1 X6.7 Y3.5 E279.7 F3150.0 ;horizontal move
G1 X6.8 E279.8 ;horizontal move
G1 X8.7 Y2.4 E282.0 ;horizontal move
G1 X8.8 Y2.3 E282.1 F3093.4 ;horizontal move
G1 X9.0 E282.3 F3150.0 ;horizontal move
G1 X11.5 Y1.7 E284.9 ;horizontal move
G1 X11.6 E285.0 F3114.1 ;horizontal move
G1 X11.7 E285.1 F3150.0 ;horizontal move
G1 X13.8 Y1.6 E287.2 ;horizontal move
G1 X13.9 E287.3 F3120.1 ;horizontal move
G1 X14.0 E287.4 F3150.0 ;horizontal move
G1 X15.7 Y1.9 E289.1 ;horizontal move
G1 X17.1 Y2.3 E290.6 ;horizontal move
G1 X17.2 E290.7 F3108.3 ;horizontal move
G1 X17.3 Y2.4 E290.8 F3150.0 ;horizontal move
G1 X19.7 Y3.7 E293.6 ;horizontal move
G1 Y3.8 E293.7 F3121.6 ;horizontal move
G1 X19.8 E293.8 F3150.0 ;horizontal move
G1 X21.1 Y4.9 E295.5 ;horizontal move
G1 X21.2 Y5.0 E295.6 F3118.2 ;horizontal move
G1 X22.4 Y6.5 E297.5 F3150.0 ;horizontal move
G1 X22.5 Y6.6 E297.7 ;horizontal move
G1 X23.6 Y8.7 E300.1 ;horizontal move
G1 Y8.8 E300.2 F3113.9 ;horizontal move
G1 X23.7 Y8.9 E300.3 F3150.0 ;horizontal move
G1 X24.2 Y10.6 E302.1 ;horizontal move
G1 Y10.8 E302.3 F3083.0 ;horizontal move
G1 Y11.0 E302.5 F3150.0 ;horizontal move
G1 Y15.0 E306.5 ;horizontal move
G1 Y15.2 E306.7 F3065.3 ;horizontal move
G1 Y15.4 E306.9 F3150.0 ;horizontal move
G1 X23.5 Y17.5 E309.1 ;horizontal move
G1 Y17.6 E309.2 F3121.7 ;horizontal move
G1 X23.4 E309.3 F3150.0 ;horizontal move
G1 X22.6 Y19.1 E311.0 ;horizontal move
G1 X22.3 Y19.7 E311.6 F2843.0 ;horizontal move
G1 X20.6 Y21.5 E314.1 F1474.2 ;horizontal move
G1 X20.3 Y21.3 E314.5 F1768.6 ;horizontal move
G1 F18000.0; feed for start of next move
G1 E254.5; extruder retraction
G1 F1500.0; feed for start of next move
G1 X20.0 Y21.0 F3500.0 ;horizontal move
G1 F18000.0; feed for start of next move
G1 E314.5; extruder dwell
G1 F1500.0; feed for start of next move
G1 X17.1 Y18.0 E318.7 F3500.0 ;horizontal move
G1 X7.8 Y8.7 E331.8 ;horizontal move
G1 X5.0 Y5.9 E335.8 F1685.0 ;horizontal move
G1 X5.1 E335.9 F1734.8 ;horizontal move
G1 X5.3 Y5.6 E336.2 F1433.6 ;horizontal move
G1 X8.3 Y8.6 E340.5 F3500.0 ;horizontal move
G1 X17.5 Y17.7 E353.4 ;horizontal move
G1 X20.5 Y20.6 E357.6 F1500.0 ;horizontal move
G1 F18000.0; feed for start of next move
G1 E297.6; extruder retraction
G1 F1500.0; feed for start of next move
G1 X20.7 Y20.5 F1661.1 ;horizontal move
G1 X20.8 Y20.3 F1500.0 ;horizontal move
G1 F18000.0; feed for start of next move
G1 E357.6; extruder dwell
G1 F1500.0; feed for start of next move
G1 X17.8 Y17.3 E361.8 F3500.0 ;horizontal move
G1 X8.7 Y8.2 E374.7 ;horizontal move
G1 X5.8 Y5.2 E378.9 F1504.0 ;horizontal move
G1 X5.9 Y5.1 E379.0 F1662.9 ;horizontal move
G1 X6.1 Y4.9 E379.3 F1500.0 ;horizontal move
G1 F18000.0; feed for start of next move
G1 E319.3; extruder retraction
G1 F1500.0; feed for start of next move
G1 X6.3 Y4.8 F1688.2 ;horizontal move
G1 X6.5 Y4.6 F1500.0 ;horizontal move
G1 F18000.0; feed for start of next move
G1 E379.3; extruder dwell
G1 F1500.0; feed for start of next move
G1 X9.5 Y7.6 E383.5 F3500.0 ;horizontal move
G1 X18.4 Y16.5 E396.1 ;horizontal move
G1 X21.4 Y19.5 E400.4 F1432.1 ;horizontal move
G1 X21.7 Y19.2 E400.8 F1736.2 ;horizontal move
G1 Y19.1 E400.9 F1689.1 ;horizontal move
G1 X19.0 Y16.4 E404.7 F3500.0 ;horizontal move
G1 X10.0 Y7.3 E417.5 ;horizontal move
G1 X7.0 Y4.3 E421.8 F1355.9 ;horizontal move
G1 X7.3 Y4.0 E422.2 F1696.1 ;horizontal move
G1 X10.1 Y6.8 E426.1 F3500.0 ;horizontal move
G1 X18.8 Y15.5 E438.4 ;horizontal move
G1 X22.0 Y18.7 E443.0 F1222.9 ;horizontal move
G1 X22.2 Y18.2 E443.5 F1610.0 ;horizontal move
G1 X19.4 Y15.4 E447.5 F3500.0 ;horizontal move
G1 X10.9 Y6.9 E459.5 ;horizontal move
G1 X7.9 Y3.8 E463.8 F1356.0 ;horizontal move
G1 X8.2 Y3.5 E464.2 F1696.2 ;horizontal move
G1 X11.0 Y6.3 E468.2 F3500.0 ;horizontal move
G1 X19.4 Y14.6 E480.0 ;horizontal move
G1 X22.5 Y17.7 E484.4 F1356.0 ;horizontal move
G1 X22.7 Y17.3 E484.8 F1696.2 ;horizontal move
G1 X20.0 Y14.6 E488.6 F3500.0 ;horizontal move
G1 X11.6 Y6.2 E500.5 ;horizontal move
G1 X8.7 Y3.2 E504.7 F1500.0 ;horizontal move
G1 F18000.0; feed for start of next move
G1 E444.7; extruder retraction
G1 F1500.0; feed for start of next move
G1 X9.6 Y3.0 F2084.6 ;horizontal move
G1 X10.4 Y2.8 F1500.0 ;horizontal move
G1 F18000.0; feed for start of next move
G1 E504.7; extruder dwell
G1 F1500.0; feed for start of next move
G1 X13.3 Y5.7 E508.8 F3500.0 ;horizontal move
G1 X20.5 Y12.9 E519.0 ;horizontal move
G1 X23.3 Y15.7 E522.9 F1627.7 ;horizontal move
G1 X23.1 Y16.2 E523.5 F1191.2 ;horizontal move
G1 X19.9 Y13.0 E528.0 F3500.0 ;horizontal move
G1 X12.6 Y5.7 E538.3 ;horizontal move
G1 X9.7 Y2.9 E542.4 F1626.5 ;horizontal move
G1 X9.2 Y3.1 E542.9 F1189.6 ;horizontal move
G1 X12.4 Y6.3 E547.4 F3500.0 ;horizontal move
G1 X20.0 Y13.8 E558.1 ;horizontal move
G1 X22.9 Y16.7 E562.2 F1500.0 ;horizontal move
G1 F18000.0; feed for start of next move
G1 E502.2; extruder retraction
G1 F1500.0; feed for start of next move
G1 X23.2 Y15.9 F2064.4 ;horizontal move
G1 X23.4 Y15.1 F1500.0 ;horizontal move
G1 F18000.0; feed for start of next move
G1 E562.2; extruder dwell
G1 F1500.0; feed for start of next move
G1 X20.5 Y12.2 E566.3 F3500.0 ;horizontal move
G1 X14.1 Y5.8 E575.3 ;horizontal move
G1 X10.9 Y2.6 E579.9 F1137.3 ;horizontal move
G1 X11.3 Y2.5 E580.3 F1530.3 ;horizontal move
G1 X14.3 Y5.4 E584.5 F3500.0 ;horizontal move
G1 X20.1 Y11.1 E592.6 ;horizontal move
G1 X23.5 Y14.4 E597.3 F973.7 ;horizontal move
G1 Y13.9 E597.8 F1498.0 ;horizontal move
G1 X20.5 Y10.9 E602.1 F3500.0 ;horizontal move
G1 X15.1 Y5.4 E609.8 ;horizontal move
G1 X12.1 Y2.4 E614.0 F1500.0 ;horizontal move
G1 F18000.0; feed for start of next move
G1 E554.0; extruder retraction
G1 F1500.0; feed for start of next move
G1 X12.5 F1757.8 ;horizontal move
G1 X12.8 F1500.0 ;horizontal move
G1 F18000.0; feed for start of next move
G1 E614.0; extruder dwell
G1 F1500.0; feed for start of next move
G1 X15.8 Y5.3 E618.2 F3500.0 ;horizontal move
G1 X20.1 Y9.7 E624.3 ;horizontal move
G1 X23.5 Y13.0 E629.1 F969.7 ;horizontal move
G1 Y12.5 E629.6 F1495.4 ;horizontal move
G1 X20.5 Y9.5 E633.8 F3500.0 ;horizontal move
G1 X16.9 Y5.8 E639.0 ;horizontal move
G1 X13.6 Y2.4 E643.7 F923.8 ;horizontal move
G1 X14.2 Y2.5 E644.3 F1516.8 ;horizontal move
G1 X17.1 Y5.4 E648.4 F3500.0 ;horizontal move
G1 X20.1 Y8.3 E652.6 ;horizontal move
G1 X23.5 Y11.6 E657.3 F974.9 ;horizontal move
G1 Y11.0 E657.9 F1498.8 ;horizontal move
G1 X20.5 Y8.1 E662.1 F3500.0 ;horizontal move
G1 X18.0 Y5.5 E665.7 ;horizontal move
G1 X15.1 Y2.6 E669.8 F1500.0 ;horizontal move
G1 F18000.0; feed for start of next move
G1 E609.8; extruder retraction
G1 F1500.0; feed for start of next move
G1 X15.6 Y2.7 F1863.8 ;horizontal move
G1 X16.1 Y2.8 F1500.0 ;horizontal move
G1 F18000.0; feed for start of next move
G1 E669.8; extruder dwell
G1 F1500.0; feed for start of next move
G1 X19.0 Y5.8 E674.0 F3500.0 ;horizontal move
G1 X19.8 Y6.5 E675.1 ;horizontal move
G1 X23.2 Y9.9 E679.9 F844.4 ;horizontal move
G1 X22.9 Y9.1 E680.7 F1676.2 ;horizontal move
G1 X20.4 Y6.5 E684.3 F3389.6 ;horizontal move
G1 X17.2 Y3.2 E688.9 F786.1 ;horizontal move
G1 X18.4 Y3.8 E690.3 F1926.1 ;horizontal move
G1 X19.9 Y5.4 E692.5 F2998.0 ;horizontal move
G1 X22.0 Y7.3 E695.3 F1500.0 ;horizontal move
G1 F18000.0; feed for start of next move
G1 E635.3; extruder retraction
G1 F1500.0; feed for start of next move
G1 X18.4 Y9.5 F3500.0 ;horizontal move
G1 X17.2 Y10.2 ;horizontal move
G1 X13.6 Y12.4 F1500.0 ;horizontal move
G1 F18000.0; feed for start of next move
G1 E695.3; extruder dwell
G1 F1500.0; feed for start of next move
G1 X16.5 Y15.4 E699.5 F3500.0 ;horizontal move
G1 X18.1 Y17.0 E701.7 ;horizontal move
G1 X21.1 Y19.9 E705.9 F1500.0 ;horizontal move
G1 F18000.0; feed for start of next move
G1 E645.9; extruder retraction
G1 F1500.0; feed for start of next move
G1 X20.4 Y20.6 F2150.8 ;horizontal move
G1 X19.7 Y21.3 F1500.0 ;horizontal move
G1 F18000.0; feed for start of next move
G1 E705.9; extruder dwell
G1 F1500.0; feed for start of next move
G1 X16.7 Y18.4 E710.1 F3500.0 ;horizontal move
G1 X7.7 Y9.3 E722.9 ;horizontal move
G1 X4.7 Y6.4 E727.0 F1500.0 ;horizontal move
G1 F18000.0; feed for start of next move
G1 E667.0; extruder retraction
G1 F1500.0; feed for start of next move
G1 X4.6 Y6.6 F1661.1 ;horizontal move
G1 X4.4 Y6.7 F1500.0 ;horizontal move
G1 F18000.0; feed for start of next move
G1 E727.0; extruder dwell
G1 F1500.0; feed for start of next move
G1 X7.4 Y9.7 E731.3 F3500.0 ;horizontal move
G1 X16.4 Y18.7 E744.0 ;horizontal move
G1 X19.3 Y21.6 E748.1 F1500.0 ;horizontal move
G1 F18000.0; feed for start of next move
G1 E688.1; extruder retraction
G1 F1500.0; feed for start of next move
G1 X15.2 Y21.2 F3500.0 ;horizontal move
G1 X9.1 Y20.5 ;horizontal move
G1 X5.0 Y20.1 F1500.0 ;horizontal move
G1 F18000.0; feed for start of next move
G1 E748.1; extruder dwell
G1 F1500.0; feed for start of next move
G1 X6.1 Y21.0 E749.5 F2366.3 ;horizontal move
G1 X6.5 Y21.4 E750.1 F2037.9 ;horizontal move
G1 X7.8 Y22.2 E751.6 F772.4 ;horizontal move
G1 X5.2 Y19.6 E755.3 F3063.2 ;horizontal move
G1 X3.6 Y17.9 E757.6 F1926.0 ;horizontal move
G1 X3.0 Y16.7 E759.0 F785.9 ;horizontal move
G1 X6.5 Y20.1 E763.9 F3500.0 ;horizontal move
G1 Y20.2 E764.0 ;horizontal move
G1 X9.3 Y22.9 E767.9 F1723.0 ;horizontal move
G1 X10.2 Y23.2 E768.8 F831.9 ;horizontal move
G1 X6.8 Y19.8 E773.6 F3500.0 ;horizontal move
G1 X5.6 Y18.6 E775.3 ;horizontal move
G1 X2.7 Y15.6 E779.5 F1500.0 ;horizontal move
G1 F18000.0; feed for start of next move
G1 E719.5; extruder retraction
G1 F1500.0; feed for start of next move
G1 X2.6 Y15.1 F1863.8 ;horizontal move
G1 X2.5 Y14.6 F1500.0 ;horizontal move
G1 F18000.0; feed for start of next move
G1 E779.5; extruder dwell
G1 F1500.0; feed for start of next move
G1 X5.4 Y17.6 E783.7 F3500.0 ;horizontal move
G1 X8.3 Y20.5 E787.8 ;horizontal move
G1 X11.3 Y23.5 E792.0 F1516.9 ;horizontal move
G1 X11.9 E792.6 F924.0 ;horizontal move
G1 X8.6 Y20.1 E797.3 F3500.0 ;horizontal move
G1 X5.3 Y16.8 E802.0 ;horizontal move
G1 X2.4 Y13.9 E806.1 F1516.7 ;horizontal move
G1 X2.3 Y13.3 E806.7 F923.6 ;horizontal move
G1 X5.7 Y16.6 E811.5 F3500.0 ;horizontal move
G1 X9.9 Y20.7 E817.3 ;horizontal move
G1 X12.9 Y23.6 E821.5 F1499.4 ;horizontal move
G1 X13.4 E822.0 F1042.8 ;horizontal move
G1 X10.1 Y20.3 E826.7 F3500.0 ;horizontal move
G1 X5.3 Y15.4 E833.5 ;horizontal move
G1 X2.4 Y12.5 E837.6 F1500.0 ;horizontal move
G1 F18000.0; feed for start of next move
G1 E777.6; extruder retraction
G1 F1500.0; feed for start of next move
G1 X2.5 Y12.2 F1760.3 ;horizontal move
G1 Y11.8 F1500.0 ;horizontal move
G1 F18000.0; feed for start of next move
G1 E837.6; extruder dwell
G1 F1500.0; feed for start of next move
G1 X5.4 Y14.8 E841.8 F3500.0 ;horizontal move
G1 X11.2 Y20.6 E850.0 ;horizontal move
G1 X14.2 Y23.5 E854.2 F1500.2 ;horizontal move
G1 X14.6 E854.6 F1043.9 ;horizontal move
G1 X11.4 Y20.1 E859.2 F3500.0 ;horizontal move
G1 X5.4 Y14.0 E867.8 ;horizontal move
G1 X2.5 Y11.1 E871.9 F1532.6 ;horizontal move
G1 X2.6 Y10.7 E872.3 F1140.4 ;horizontal move
G1 X5.8 Y13.9 E876.8 F3500.0 ;horizontal move
G1 X12.5 Y20.4 E886.2 ;horizontal move
G1 X15.4 Y23.3 E890.3 F1531.4 ;horizontal move
G1 X15.8 Y23.2 E890.7 F1138.8 ;horizontal move
G1 X12.6 Y20.0 E895.2 F3500.0 ;horizontal move
G1 X5.8 Y13.0 E905.0 ;horizontal move
G1 X2.8 Y10.1 E909.1 F1500.0 ;horizontal move
G1 F18000.0; feed for start of next move
G1 E849.1; extruder retraction
G1 F1500.0; feed for start of next move
G1 Y9.8 F1726.2 ;horizontal move
G1 X2.9 Y9.5 F1500.0 ;horizontal move
G1 F18000.0; feed for start of next move
G1 E909.1; extruder dwell
G1 F1500.0; feed for start of next move
G1 X5.9 Y12.5 E913.4 F3500.0 ;horizontal move
G1 X13.7 Y20.2 E924.3 ;horizontal move
G1 X16.5 Y23.0 E928.3 F1628.7 ;horizontal move
G1 X17.0 Y22.9 E928.8 F1192.6 ;horizontal move
G1 X13.8 Y19.7 E933.3 F3500.0 ;horizontal move
G1 X6.0 Y11.8 E944.4 ;horizontal move
G1 X3.2 Y8.9 E948.5 F1602.6 ;horizontal move
G1 X3.4 Y8.6 E948.8 F1265.9 ;horizontal move
G1 X6.5 Y11.7 E953.2 F3500.0 ;horizontal move
G1 X14.7 Y19.8 E964.7 ;horizontal move
G1 X17.5 Y22.6 E968.7 F1602.6 ;horizontal move
G1 X17.9 Y22.4 E969.1 F1265.8 ;horizontal move
G1 X14.8 Y19.3 E973.5 F3500.0 ;horizontal move
G1 X6.6 Y11.1 E985.1 ;horizontal move
G1 X3.7 Y8.1 E989.3 F1500.0 ;horizontal move
G1 F18000.0; feed for start of next move
G1 E929.3; extruder retraction
G1 F1500.0; feed for start of next move
G1 X3.8 Y7.9 F1691.7 ;horizontal move
G1 Y7.6 F1500.0 ;horizontal move
G1 F18000.0; feed for start of next move
G1 E989.3; extruder dwell
G1 F1500.0; feed for start of next move
G1 X6.8 Y10.6 E993.5 F3500.0 ;horizontal move
G1 X15.6 Y19.3 E1005.9 ;horizontal move
G1 X18.4 Y22.1 E1009.9 F1611.1 ;horizontal move
G1 X18.8 Y22.0 E1010.3 F1224.3 ;horizontal move
G1 X15.7 Y18.8 E1014.7 F3500.0 ;horizontal move
G1 X7.1 Y10.1 E1027.0 ;horizontal move
G1 X4.1 Y7.1 E1031.2 F1500.0 ;horizontal move
G1 F18000.0; feed for start of next move
G1 E971.2; extruder retraction
G1 F1500.0; feed for start of next move
;#!LAYER: 2/66
G28 X0 ;set x 0
G28 Y0 ;set y 0
G92 E0 ;zero the extruded length
G92 E0 ;zero the extruded length
G92 E0 ;zero the extruded length
T1; select new extruder
M113; set extruder to use pot for PWM
G92 E0 ;zero the extruded length
T0; select new extruder
M113; set extruder to use pot for PWM
G1 F50.0; feed for start of next move
G1 Z0.5 ;z move
T0; select new extruder
M113; set extruder to use pot for PWM
G1 F1500.0; feed for start of next move
G1 X-1.5 Y-1.5 F2709.5 ;horizontal move
G1 X-3.0 Y-3.0 F1500.0 ;horizontal move
G1 F18000.0; feed for start of next move
G1 E60.0; extruder dwell
G1 F1500.0; feed for start of next move
G1 F3500.0; feed for start of next move
G1 E85.0; extruder dwell
G1 F1500.0; feed for start of next move
G1 Y1.2 E89.2 F3500.0 ;horizontal move
G1 Y2.8 E90.8 ;horizontal move
G1 Y7.0 E95.0 F1500.0 ;horizontal move
G1 X-4.0 E96.0 F2156.4 ;horizontal move
G1 X-5.0 E97.0 F1500.0 ;horizontal move
G1 Y2.8 E101.2 F3500.0 ;horizontal move
G1 Y-0.8 E104.8 ;horizontal move
G1 Y-5.0 E109.0 F1500.0 ;horizontal move
G1 X-0.8 E113.2 F3500.0 ;horizontal move
G1 X12.8 E126.8 ;horizontal move
G1 X17.0 E131.0 F1500.0 ;horizontal move
G1 Y-4.0 E132.0 F2156.4 ;horizontal move
G1 Y-3.0 E133.0 F1500.0 ;horizontal move
G1 X12.8 E137.2 F3500.0 ;horizontal move
G1 X1.2 E148.8 ;horizontal move
G1 X-3.0 E153.0 F1500.0 ;horizontal move
G1 F18000.0; feed for start of next move
G1 E93.0; extruder retraction
G1 F1500.0; feed for start of next move
G1 X-0.1 Y-0.1 F3500.0 ;horizontal move
G1 X10.0 Y10.0 ;horizontal move
G1 X12.9 Y12.9 F1500.0 ;horizontal move
G1 F18000.0; feed for start of next move
G1 E153.0; extruder dwell
G1 F1500.0; feed for start of next move
G1 X10.6 Y15.2 E156.3 F3150.0 ;horizontal move
G1 X7.2 Y18.7 E161.1 ;horizontal move
G1 X4.9 Y21.1 E164.5 F1435.5 ;horizontal move
G1 X3.8 Y19.8 E166.2 F2458.4 ;horizontal move
G1 X3.0 Y18.4 E167.8 F3150.0 ;horizontal move
G1 X2.4 Y17.3 E169.0 ;horizontal move
G1 X2.3 Y17.2 E169.2 F3108.6 ;horizontal move
G1 Y17.1 E169.3 F3150.0 ;horizontal move
G1 X1.7 Y15.0 E171.5 ;horizontal move
G1 Y14.8 E171.7 F3088.0 ;horizontal move
G1 Y14.7 E171.8 F3150.0 ;horizontal move
G1 Y11.1 E175.4 ;horizontal move
G1 Y10.9 E175.6 F3069.2 ;horizontal move
G1 Y10.7 E175.8 F3150.0 ;horizontal move
G1 X2.4 Y8.5 E178.1 ;horizontal move
G1 X2.5 E178.2 F3115.5 ;horizontal move
G1 Y8.4 E178.3 F3150.0 ;horizontal move
G1 X3.6 Y6.4 E180.5 ;horizontal move
G1 X3.7 E180.6 F3124.6 ;horizontal move
G1 Y6.3 E180.7 F3150.0 ;horizontal move
G1 X4.8 Y5.0 E182.4 ;horizontal move
G1 X4.9 Y4.9 E182.6 F3124.1 ;horizontal move
G1 X6.3 Y3.7 E184.4 F3150.0 ;horizontal move
G1 X6.4 E184.5 F3108.0 ;horizontal move
G1 X6.5 Y3.6 E184.7 F3150.0 ;horizontal move
G1 X9.0 Y2.3 E187.5 ;horizontal move
G1 X9.1 E187.6 F3119.0 ;horizontal move
G1 X10.7 Y1.8 E189.3 F3150.0 ;horizontal move
G1 X10.8 E189.4 ;horizontal move
G1 X13.3 Y1.6 E191.9 ;horizontal move
G1 X13.4 E192.0 F3111.3 ;horizontal move
G1 X13.5 E192.1 F3150.0 ;horizontal move
G1 X15.2 Y1.8 E193.8 ;horizontal move
G1 X15.3 E193.9 F3124.1 ;horizontal move
G1 X15.4 E194.0 F3150.0 ;horizontal move
G1 X17.5 Y2.5 E196.2 ;horizontal move
G1 X17.6 E196.3 F3112.6 ;horizontal move
G1 X17.7 Y2.6 E196.4 F3150.0 ;horizontal move
G1 X19.6 Y3.7 E198.6 ;horizontal move
G1 X19.7 E198.7 F3124.6 ;horizontal move
G1 Y3.8 E198.8 F3150.0 ;horizontal move
G1 X21.1 Y4.9 E200.6 ;horizontal move
G1 X21.2 Y5.0 E200.8 ;horizontal move
G1 X22.3 Y6.4 E202.5 ;horizontal move
G1 X22.4 E202.6 F3116.7 ;horizontal move
G1 Y6.5 E202.7 F3150.0 ;horizontal move
G1 X23.5 Y8.5 E205.0 ;horizontal move
G1 Y8.6 E205.1 ;horizontal move
G1 X24.2 Y10.6 E207.2 ;horizontal move
G1 Y10.8 E207.4 F3073.4 ;horizontal move
G1 Y11.0 E207.6 F3150.0 ;horizontal move
G1 Y15.2 E211.8 ;horizontal move
G1 Y15.4 E212.0 F3070.3 ;horizontal move
G1 Y15.6 E212.2 F3150.0 ;horizontal move
G1 X23.7 Y17.2 E213.9 ;horizontal move
G1 X23.6 Y17.3 E214.1 F3110.7 ;horizontal move
G1 Y17.4 E214.2 F3150.0 ;horizontal move
G1 X22.1 Y19.9 E217.1 ;horizontal move
G1 X22.0 Y20.0 E217.2 F3105.3 ;horizontal move
G1 X21.9 Y20.1 E217.4 F3150.0 ;horizontal move
G1 X20.7 Y21.5 E219.2 ;horizontal move
G1 X20.6 E219.3 F3140.6 ;horizontal move
G1 X19.6 Y22.4 E220.6 F3150.0 ;horizontal move
G1 X19.5 E220.7 F3116.9 ;horizontal move
G1 X19.4 Y22.5 E220.9 F3150.0 ;horizontal move
G1 X17.6 Y23.5 E222.9 ;horizontal move
G1 X17.5 E223.0 F3114.5 ;horizontal move
G1 X17.4 E223.1 F3150.0 ;horizontal move
G1 X15.2 Y24.2 E225.5 ;horizontal move
G1 X15.1 E225.6 F3118.7 ;horizontal move
G1 X15.0 E225.7 F3150.0 ;horizontal move
G1 X13.3 Y24.4 E227.4 ;horizontal move
G1 X13.2 E227.5 ;horizontal move
G1 X10.7 Y24.2 E230.0 ;horizontal move
G1 X10.6 E230.1 F3113.0 ;horizontal move
G1 X10.5 E230.2 F3150.0 ;horizontal move
G1 X8.9 Y23.7 E231.8 ;horizontal move
G1 X8.8 Y23.6 E232.0 F3110.9 ;horizontal move
G1 X8.7 E232.1 F3150.0 ;horizontal move
G1 X7.5 Y22.9 E233.5 ;horizontal move
G1 X5.9 Y22.0 E235.3 F2323.1 ;horizontal move
G1 X4.9 Y21.1 E236.7 F1460.2 ;horizontal move
G1 X7.1 Y18.7 E239.9 F3150.0 ;horizontal move
G1 X10.6 Y15.2 E244.9 ;horizontal move
G1 F18000.0; feed for start of next move
G1 E184.9; extruder retraction
G1 F1500.0; feed for start of next move
G1 X12.9 Y12.9 F3500.0 ;horizontal move
G1 F1500.0; feed for start of next move
G1 X13.1 Y13.1 F1711.4 ;horizontal move
G1 X13.3 Y13.3 F1500.0 ;horizontal move
G1 F18000.0; feed for start of next move
G1 E244.9; extruder dwell
G1 F1500.0; feed for start of next move
G1 X15.5 Y11.0 E248.0 F3150.0 ;horizontal move
G1 X18.6 Y7.8 E252.5 ;horizontal move
G1 X20.9 Y5.4 E255.8 F1420.5 ;horizontal move
G1 X22.1 Y6.8 E257.7 F2552.8 ;horizontal move
G1 X22.7 Y8.1 E259.1 F3150.0 ;horizontal move
G1 X23.2 Y9.1 E260.2 ;horizontal move
G1 X23.3 Y9.2 E260.4 F3115.6 ;horizontal move
G1 Y9.3 E260.5 F3150.0 ;horizontal move
G1 X23.7 Y10.8 E262.0 ;horizontal move
G1 X23.8 Y10.9 E262.2 F3084.5 ;horizontal move
G1 Y11.1 E262.4 F3150.0 ;horizontal move
G1 X23.7 Y15.2 E266.5 ;horizontal move
G1 Y15.4 E266.7 F3090.6 ;horizontal move
G1 Y15.5 E266.8 F3150.0 ;horizontal move
G1 X23.2 Y17.1 E268.4 ;horizontal move
G1 Y17.2 E268.5 F3098.6 ;horizontal move
G1 X23.1 Y17.3 E268.7 F3150.0 ;horizontal move
G1 X21.8 Y19.5 E271.2 ;horizontal move
G1 Y19.6 E271.3 F3125.8 ;horizontal move
G1 X21.7 E271.4 F3150.0 ;horizontal move
G1 X20.8 Y20.7 E272.9 ;horizontal move
G1 Y20.8 E273.0 F3126.9 ;horizontal move
G1 X20.7 E273.1 F3150.0 ;horizontal move
G1 X19.3 Y22.0 E274.9 ;horizontal move
G1 X19.2 Y22.1 E275.0 ;horizontal move
G1 X17.2 Y23.2 E277.3 ;horizontal move
G1 X17.0 E277.5 F3096.1 ;horizontal move
G1 X16.9 Y23.3 E277.7 F3150.0 ;horizontal move
G1 X14.7 Y23.8 E279.9 ;horizontal move
G1 X14.6 E280.0 F3121.8 ;horizontal move
G1 X14.5 E280.1 F3150.0 ;horizontal move
G1 X12.4 Y23.9 E282.2 ;horizontal move
G1 X12.3 E282.3 ;horizontal move
G1 X11.2 Y23.8 E283.4 ;horizontal move
G1 X11.1 E283.5 F3125.0 ;horizontal move
G1 X11.0 E283.6 F3150.0 ;horizontal move
G1 X9.5 Y23.4 E285.2 ;horizontal move
G1 X9.4 Y23.3 E285.3 F3105.4 ;horizontal move
G1 X9.3 E285.4 F3150.0 ;horizontal move
G1 X6.4 Y21.7 E288.7 ;horizontal move
G1 X6.3 E288.8 F3117.8 ;horizontal move
G1 X6.2 Y21.6 E289.0 F3150.0 ;horizontal move
G1 X5.2 Y20.7 E290.3 ;horizontal move
G1 X5.1 E290.4 ;horizontal move
G1 X4.2 Y19.6 E291.8 ;horizontal move
G1 Y19.5 E291.9 ;horizontal move
G1 X3.4 Y18.3 E293.4 ;horizontal move
G1 X2.8 Y16.9 E294.9 ;horizontal move
G1 X2.7 Y16.8 E295.0 ;horizontal move
G1 X2.2 Y14.9 E297.0 ;horizontal move
G1 Y14.7 E297.2 F3069.7 ;horizontal move
G1 Y14.5 E297.4 F3150.0 ;horizontal move
G1 X2.3 Y10.5 E301.4 ;horizontal move
G1 Y10.4 E301.5 F3112.7 ;horizontal move
G1 X2.4 Y10.3 E301.7 F3150.0 ;horizontal move
G1 X2.7 Y9.2 E302.8 ;horizontal move
G1 Y9.1 E302.9 F3084.8 ;horizontal move
G1 X2.8 Y8.9 E303.1 F3150.0 ;horizontal move
G1 X4.4 Y6.3 E306.2 ;horizontal move
G1 Y6.2 E306.3 F3128.2 ;horizontal move
G1 X5.3 Y5.2 E307.6 F3150.0 ;horizontal move
G1 Y5.1 E307.7 F3121.8 ;horizontal move
G1 X5.4 E307.8 F3150.0 ;horizontal move
G1 X6.6 Y4.1 E309.4 ;horizontal move
G1 X6.7 Y4.0 E309.5 F3124.5 ;horizontal move
G1 X8.6 Y2.9 E311.7 F3150.0 ;horizontal move
G1 X8.7 E311.8 F3104.8 ;horizontal move
G1 X8.8 Y2.8 E312.0 F3150.0 ;horizontal move
G1 X11.0 Y2.2 E314.2 ;horizontal move
G1 X11.1 E314.3 ;horizontal move
G1 X13.0 Y2.0 E316.2 ;horizontal move
G1 X13.1 E316.3 F3117.5 ;horizontal move
G1 X13.2 E316.4 F3150.0 ;horizontal move
G1 X15.2 Y2.3 E318.5 ;horizontal move
G1 X15.3 E318.6 ;horizontal move
G1 X16.8 Y2.7 E320.1 ;horizontal move
G1 X16.9 Y2.8 E320.3 F3103.3 ;horizontal move
G1 X17.0 E320.4 F3150.0 ;horizontal move
G1 X18.3 Y3.5 E321.8 ;horizontal move
G1 X19.6 Y4.3 E323.4 F2511.7 ;horizontal move
G1 X20.9 Y5.4 E325.1 F1456.9 ;horizontal move
G1 X18.6 Y7.7 E328.3 F3150.0 ;horizontal move
G1 X15.5 Y11.0 E332.9 ;horizontal move
G1 F18000.0; feed for start of next move
G1 E272.9; extruder retraction
G1 F1500.0; feed for start of next move
G1 X13.3 Y13.3 F3500.0 ;horizontal move
G1 F1500.0; feed for start of next move
G1 X14.5 Y9.3 F3500.0 ;horizontal move
G1 X15.3 Y6.9 ;horizontal move
G1 X16.5 Y2.9 F1500.0 ;horizontal move
G1 F18000.0; feed for start of next move
G1 E332.9; extruder dwell
G1 F1500.0; feed for start of next move
G1 X13.6 Y5.9 E337.0 F3500.0 ;horizontal move
G1 X5.8 Y13.6 E348.0 ;horizontal move
G1 X2.9 Y16.5 E352.1 F1561.4 ;horizontal move
G1 X3.1 Y17.0 E352.6 F1118.3 ;horizontal move
G1 X6.3 Y13.8 E357.1 F3500.0 ;horizontal move
G1 X14.1 Y6.1 E368.1 ;horizontal move
G1 X17.0 Y3.2 E372.2 F1509.0 ;horizontal move
G1 X17.4 Y3.3 E372.6 F1168.9 ;horizontal move
G1 X14.2 Y6.5 E377.1 F3500.0 ;horizontal move
G1 X6.2 Y14.7 E388.6 ;horizontal move
G1 X3.4 Y17.5 E392.6 F1604.9 ;horizontal move
G1 X3.5 Y17.9 E393.0 F1268.8 ;horizontal move
G1 X6.7 Y14.8 E397.4 F3500.0 ;horizontal move
G1 X15.1 Y6.5 E409.2 ;horizontal move
G1 X18.0 Y3.7 E413.3 F1607.8 ;horizontal move
G1 X18.3 Y3.8 E413.6 F1321.1 ;horizontal move
G1 X15.2 Y6.9 E418.0 F3500.0 ;horizontal move
G1 X6.6 Y15.6 E430.2 ;horizontal move
G1 X3.8 Y18.4 E434.2 F1691.7 ;horizontal move
G1 X4.1 Y18.8 E434.7 F1304.1 ;horizontal move
G1 X7.2 Y15.7 E439.0 F3500.0 ;horizontal move
G1 X16.1 Y6.9 E451.6 ;horizontal move
G1 X18.8 Y4.1 E455.5 F1692.8 ;horizontal move
G1 X19.3 Y4.4 E456.0 F1305.6 ;horizontal move
G1 X16.2 Y7.5 E460.4 F3500.0 ;horizontal move
G1 X7.3 Y16.5 E473.1 ;horizontal move
G1 X4.4 Y19.3 E477.1 F1608.9 ;horizontal move
G1 X4.6 Y19.6 E477.5 F1322.5 ;horizontal move
G1 X7.7 Y16.5 E481.9 F3500.0 ;horizontal move
G1 X16.9 Y7.5 E494.7 ;horizontal move
G1 X19.7 Y4.7 E498.7 F1715.6 ;horizontal move
G1 X20.0 Y5.0 E499.1 F1421.6 ;horizontal move
G1 X17.0 Y8.0 E503.4 F3500.0 ;horizontal move
G1 X7.8 Y17.3 E516.4 ;horizontal move
G1 X5.0 Y20.1 E520.4 F1715.5 ;horizontal move
G1 X5.3 Y20.4 E520.8 F1421.6 ;horizontal move
G1 X8.3 Y17.4 E525.1 F3500.0 ;horizontal move
G1 X9.9 Y15.8 E527.3 ;horizontal move
G1 X12.9 Y12.9 E531.5 F1500.0 ;horizontal move
G1 F18000.0; feed for start of next move
G1 E471.5; extruder retraction
G1 F1500.0; feed for start of next move
G1 F18000.0; feed for start of next move
G1 E531.5; extruder dwell
G1 F1500.0; feed for start of next move
G1 X15.8 Y10.0 E535.6 F3500.0 ;horizontal move
G1 X17.5 Y8.3 E538.0 ;horizontal move
G1 X20.5 Y5.4 E542.2 F1511.9 ;horizontal move
G1 X20.6 Y5.5 E542.3 F1670.0 ;horizontal move
G1 X20.8 Y5.7 E542.6 F1508.0 ;horizontal move
G1 X17.8 Y8.7 E546.8 F3500.0 ;horizontal move
G1 X16.2 Y10.3 E549.1 ;horizontal move
G1 X13.3 Y13.3 E553.3 F1500.0 ;horizontal move
G1 F18000.0; feed for start of next move
G1 E493.3; extruder retraction
G1 F1500.0; feed for start of next move
G1 F18000.0; feed for start of next move
G1 E553.3; extruder dwell
G1 F1500.0; feed for start of next move
G1 X10.3 Y16.2 E557.4 F3500.0 ;horizontal move
G1 X8.8 Y17.8 E559.6 ;horizontal move
G1 X5.8 Y20.8 E563.9 F1420.1 ;horizontal move
G1 X6.1 Y21.1 E564.3 F1714.3 ;horizontal move
G1 X8.8 Y18.3 E568.2 F3500.0 ;horizontal move
G1 X18.1 Y9.1 E581.3 ;horizontal move
G1 X21.1 Y6.1 E585.5 F1420.2 ;horizontal move
G1 X21.4 Y6.4 E585.9 F1714.3 ;horizontal move
G1 X18.6 Y9.2 E589.9 F3500.0 ;horizontal move
G1 X9.5 Y18.4 E602.8 ;horizontal move
G1 X6.5 Y21.5 E607.2 F1423.2 ;horizontal move
G1 X6.8 Y21.7 E607.5 F1716.8 ;horizontal move
G1 X9.6 Y19.0 E611.4 F3500.0 ;horizontal move
G1 X18.6 Y10.0 E624.1 ;horizontal move
G1 X21.8 Y6.9 E628.6 F1265.7 ;horizontal move
G1 X22.0 Y7.3 E629.0 F1602.5 ;horizontal move
G1 X19.1 Y10.1 E633.1 F3500.0 ;horizontal move
G1 X10.5 Y18.8 E645.3 ;horizontal move
G1 X7.3 Y22.0 E649.8 F1224.3 ;horizontal move
G1 X7.7 Y22.2 E650.3 F1611.1 ;horizontal move
G1 X10.6 Y19.4 E654.3 F3500.0 ;horizontal move
G1 X19.1 Y10.9 E666.3 ;horizontal move
G1 X22.3 Y7.8 E670.8 F1265.8 ;horizontal move
G1 X22.4 Y8.2 E671.2 F1602.6 ;horizontal move
G1 X19.6 Y11.0 E675.2 F3500.0 ;horizontal move
G1 X11.4 Y19.3 E686.8 ;horizontal move
G1 X8.3 Y22.4 E691.2 F1305.7 ;horizontal move
G1 X8.7 Y22.7 E691.7 F1692.9 ;horizontal move
G1 X11.5 Y19.9 E695.7 F3500.0 ;horizontal move
G1 X19.6 Y11.9 E707.1 ;horizontal move
G1 X22.7 Y8.7 E711.5 F1222.9 ;horizontal move
G1 X22.9 Y9.1 E712.0 F1610.1 ;horizontal move
G1 X20.1 Y12.0 E716.0 F3500.0 ;horizontal move
G1 X12.4 Y19.7 E726.9 ;horizontal move
G1 X9.2 Y22.9 E731.4 F1192.6 ;horizontal move
G1 X9.7 Y23.1 E731.9 F1628.7 ;horizontal move
G1 X12.6 Y20.3 E736.0 F3500.0 ;horizontal move
G1 X19.9 Y12.9 E746.4 ;horizontal move
G1 X23.1 Y9.8 E750.8 F1223.0 ;horizontal move
G1 X23.3 Y10.2 E751.3 F1610.1 ;horizontal move
G1 X20.4 Y13.1 E755.4 F3500.0 ;horizontal move
G1 X13.5 Y20.1 E765.2 ;horizontal move
G1 X10.3 Y23.3 E769.7 F1224.7 ;horizontal move
G1 X10.7 Y23.5 E770.2 F1611.4 ;horizontal move
G1 X13.6 Y20.6 E774.3 F3500.0 ;horizontal move
G1 X20.1 Y14.2 E783.4 ;horizontal move
G1 X23.5 Y10.9 E788.1 F972.2 ;horizontal move
G1 Y11.4 E788.6 F1497.0 ;horizontal move
G1 X20.5 Y14.4 E792.9 F3500.0 ;horizontal move
G1 X14.8 Y20.2 E801.0 ;horizontal move
G1 X11.5 Y23.5 E805.7 F1044.0 ;horizontal move
G1 X12.0 Y23.6 E806.2 F1500.3 ;horizontal move
G1 X15.0 Y20.6 E810.4 F3500.0 ;horizontal move
G1 X20.1 Y15.6 E817.6 ;horizontal move
G1 X23.5 Y12.2 E822.4 F972.5 ;horizontal move
G1 Y12.8 E823.0 F1544.6 ;horizontal move
G1 X20.6 Y15.8 E827.1 F3500.0 ;horizontal move
G1 X16.1 Y20.3 E833.5 ;horizontal move
G1 X12.8 Y23.6 E838.2 F972.6 ;horizontal move
G1 X13.3 E838.7 F1497.3 ;horizontal move
G1 X16.3 Y20.7 E842.9 F3500.0 ;horizontal move
G1 X20.5 Y16.5 E848.8 ;horizontal move
G1 X23.5 Y13.6 E853.0 F1500.0 ;horizontal move
G1 F18000.0; feed for start of next move
G1 E793.0; extruder retraction
G1 F1500.0; feed for start of next move
G1 X22.8 Y16.1 F2892.3 ;horizontal move
G1 X22.1 Y18.5 F1500.0 ;horizontal move
G1 F18000.0; feed for start of next move
G1 E853.0; extruder dwell
G1 F1500.0; feed for start of next move
G1 X20.0 Y20.6 E855.9 F3081.8 ;horizontal move
G1 X18.2 Y22.3 E858.4 F1926.0 ;horizontal move
G1 X17.1 Y22.9 E859.7 F786.0 ;horizontal move
G1 X20.4 Y19.5 E864.4 F3430.8 ;horizontal move
G1 X22.9 Y16.9 E868.0 F1721.7 ;horizontal move
G1 X23.2 Y16.0 E869.0 F829.2 ;horizontal move
G1 X19.8 Y19.4 E873.8 F3500.0 ;horizontal move
G1 X19.0 Y20.2 E874.9 ;horizontal move
G1 X16.1 Y23.2 E879.1 F1500.0 ;horizontal move
G1 F18000.0; feed for start of next move
G1 E819.1; extruder retraction
G1 F1500.0; feed for start of next move
G1 X15.6 Y23.4 F1871.6 ;horizontal move
G1 X15.1 Y23.5 F1500.0 ;horizontal move
G1 F18000.0; feed for start of next move
G1 E879.1; extruder dwell
G1 F1500.0; feed for start of next move
G1 X18.0 Y20.5 E883.2 F3500.0 ;horizontal move
G1 X20.6 Y17.9 E886.9 ;horizontal move
G1 X23.5 Y14.9 E891.1 F1542.8 ;horizontal move
G1 Y14.3 E891.7 F969.7 ;horizontal move
G1 X20.1 Y17.7 E896.5 F3500.0 ;horizontal move
G1 X17.2 Y20.6 E900.6 ;horizontal move
G1 X14.3 Y23.5 E904.7 F1500.0 ;horizontal move
G1 F18000.0; feed for start of next move
G1 E844.7; extruder retraction
G1 F1500.0; feed for start of next move
G1 X12.6 Y19.7 F3500.0 ;horizontal move
G1 X7.6 Y8.8 ;horizontal move
G1 X5.9 Y5.0 F1500.0 ;horizontal move
G1 F18000.0; feed for start of next move
G1 E904.7; extruder dwell
G1 F1500.0; feed for start of next move
G1 X4.9 Y6.1 E906.2 F2408.0 ;horizontal move
G1 X4.5 Y6.6 E906.8 F2085.2 ;horizontal move
G1 X3.7 Y7.9 E908.4 F770.1 ;horizontal move
G1 X6.3 Y5.3 E912.0 F3082.6 ;horizontal move
G1 X8.2 Y3.5 E914.7 F1827.7 ;horizontal move
G1 X9.2 Y3.1 E915.7 F796.8 ;horizontal move
G1 X5.8 Y6.5 E920.5 F3500.0 ;horizontal move
G1 X5.7 Y6.6 E920.7 ;horizontal move
G1 X2.9 Y9.4 E924.6 F1677.7 ;horizontal move
G1 X2.7 Y10.3 E925.6 F847.3 ;horizontal move
G1 X6.1 Y6.9 E930.4 F3500.0 ;horizontal move
G1 X7.5 Y5.5 E932.3 ;horizontal move
G1 X10.4 Y2.7 E936.4 F1634.8 ;horizontal move
G1 X11.2 Y2.5 E937.2 F866.7 ;horizontal move
G1 X7.8 Y5.9 E942.0 F3500.0 ;horizontal move
G1 X5.4 Y8.4 E945.5 ;horizontal move
G1 X2.5 Y11.3 E949.6 F1516.9 ;horizontal move
G1 X2.4 Y11.9 E950.2 F924.0 ;horizontal move
G1 X5.8 Y8.6 E954.9 F3500.0 ;horizontal move
G1 X9.2 Y5.3 E959.7 ;horizontal move
G1 X12.1 Y2.4 E963.8 F1516.7 ;horizontal move
G1 X12.7 Y2.3 E964.4 F923.6 ;horizontal move
G1 X9.4 Y5.7 E969.1 F3500.0 ;horizontal move
G1 X5.3 Y9.9 E975.0 ;horizontal move
G1 X2.3 Y12.9 E979.2 F1497.3 ;horizontal move
G1 Y13.4 E979.7 F972.5 ;horizontal move
G1 X5.7 Y10.1 E984.5 F3500.0 ;horizontal move
G1 X10.6 Y5.3 E991.3 ;horizontal move
G1 X13.5 Y2.4 E995.4 F1540.8 ;horizontal move
G1 X14.0 Y2.5 E995.9 F1034.5 ;horizontal move
G1 X10.8 Y5.8 E1000.5 F3500.0 ;horizontal move
G1 X5.3 Y11.3 E1008.3 ;horizontal move
G1 X2.4 Y14.2 E1012.4 F1499.2 ;horizontal move
G1 X2.5 Y14.7 E1012.9 F1042.5 ;horizontal move
G1 X5.8 Y11.4 E1017.6 F3500.0 ;horizontal move
G1 X11.8 Y5.5 E1026.0 ;horizontal move
G1 X14.8 Y2.5 E1030.2 F1500.0 ;horizontal move
G1 F18000.0; feed for start of next move
G1 E970.2; extruder retraction
G1 F1500.0; feed for start of next move
G1 X15.1 Y2.6 F1726.2 ;horizontal move
G1 X15.4 F1500.0 ;horizontal move
G1 F18000.0; feed for start of next move
G1 E1030.2; extruder dwell
G1 F1500.0; feed for start of next move
G1 X12.4 Y5.5 E1034.4 F3500.0 ;horizontal move
G1 X5.5 Y12.5 E1044.2 ;horizontal move
G1 X2.6 Y15.4 E1048.3 F1531.4 ;horizontal move
G1 X2.8 Y15.8 E1048.8 F1138.8 ;horizontal move
G1 X6.0 Y12.6 E1053.3 F3500.0 ;horizontal move
G1 X13.0 Y5.7 E1063.1 ;horizontal move
G1 X16.0 Y2.8 E1067.3 F1500.0 ;horizontal move
G1 F18000.0; feed for start of next move
G1 E1007.3; extruder retraction
G1 F1500.0; feed for start of next move
;#!LAYER: 3/66
G28 X0 ;set x 0
G28 Y0 ;set y 0
G92 E0 ;zero the extruded length
G92 E0 ;zero the extruded length
G92 E0 ;zero the extruded length
T1; select new extruder
M113; set extruder to use pot for PWM
G92 E0 ;zero the extruded length
T0; select new extruder
M113; set extruder to use pot for PWM
G1 F50.0; feed for start of next move
G1 Z0.8 ;z move
T0; select new extruder
M113; set extruder to use pot for PWM
G1 F1500.0; feed for start of next move
G1 X-1.5 Y-1.5 F2709.5 ;horizontal move
G1 X-3.0 Y-3.0 F1500.0 ;horizontal move
G1 F18000.0; feed for start of next move
G1 E60.0; extruder dwell
G1 F1500.0; feed for start of next move
G1 F3500.0; feed for start of next move
G1 E85.0; extruder dwell
G1 F1500.0; feed for start of next move
G1 Y1.2 E89.2 F3500.0 ;horizontal move
G1 Y2.8 E90.8 ;horizontal move
G1 Y7.0 E95.0 F1500.0 ;horizontal move
G1 X-4.0 E96.0 F2156.4 ;horizontal move
G1 X-5.0 E97.0 F1500.0 ;horizontal move
G1 Y2.8 E101.2 F3500.0 ;horizontal move
G1 Y-0.8 E104.8 ;horizontal move
G1 Y-5.0 E109.0 F1500.0 ;horizontal move
G1 X-0.8 E113.2 F3500.0 ;horizontal move
G1 X12.8 E126.8 ;horizontal move
G1 X17.0 E131.0 F1500.0 ;horizontal move
G1 Y-4.0 E132.0 F2156.4 ;horizontal move
G1 Y-3.0 E133.0 F1500.0 ;horizontal move
G1 X12.8 E137.2 F3500.0 ;horizontal move
G1 X1.2 E148.8 ;horizontal move
G1 X-3.0 E153.0 F1500.0 ;horizontal move
G1 F18000.0; feed for start of next move
G1 E93.0; extruder retraction
G1 F1500.0; feed for start of next move
G1 X-0.3 Y0.1 F3500.0 ;horizontal move
G1 X9.2 Y11.1 ;horizontal move
G1 X11.9 Y14.2 F1500.0 ;horizontal move
G1 F18000.0; feed for start of next move
G1 E153.0; extruder dwell
G1 F1500.0; feed for start of next move
G1 X9.6 Y11.9 E156.3 F3150.0 ;horizontal move
G1 X6.5 Y8.8 E160.6 ;horizontal move
G1 X4.4 Y6.7 E163.6 F1692.8 ;horizontal move
G1 X5.3 Y5.6 E165.0 F2520.2 ;horizontal move
G1 Y5.1 E165.5 F2757.3 ;horizontal move
G1 Y4.4 E166.2 F2473.5 ;horizontal move
G1 X6.6 Y3.5 E167.8 F3150.0 ;horizontal move
G1 X6.8 Y3.3 E168.1 ;horizontal move
G1 X6.9 E168.2 F3123.7 ;horizontal move
G1 X7.0 E168.3 F3150.0 ;horizontal move
G1 X8.9 Y2.3 E170.4 ;horizontal move
G1 X9.0 E170.5 F3128.7 ;horizontal move
G1 X9.1 E170.6 F3150.0 ;horizontal move
G1 X10.7 Y1.8 E172.3 ;horizontal move
G1 X10.8 Y1.7 E172.5 F3109.0 ;horizontal move
G1 X10.9 E172.6 F3150.0 ;horizontal move
G1 X13.4 Y1.6 E175.1 ;horizontal move
G1 X13.5 E175.2 ;horizontal move
G1 X15.3 Y1.7 E177.0 ;horizontal move
G1 X15.4 E177.1 F3106.1 ;horizontal move
G1 X15.5 Y1.8 E177.2 F3150.0 ;horizontal move
G1 X17.3 Y2.4 E179.1 ;horizontal move
G1 X17.4 E179.2 F3114.5 ;horizontal move
G1 X17.5 E179.3 F3150.0 ;horizontal move
G1 X19.8 Y3.8 E182.0 ;horizontal move
G1 X19.9 E182.1 F3128.7 ;horizontal move
G1 Y3.9 E182.2 F3150.0 ;horizontal move
G1 X21.2 Y4.9 E183.8 ;horizontal move
G1 Y5.0 E183.9 F3116.8 ;horizontal move
G1 X21.3 E184.0 F3150.0 ;horizontal move
G1 X22.5 Y6.5 E186.0 ;horizontal move
G1 Y6.6 E186.1 ;horizontal move
G1 X23.6 Y8.7 E188.4 ;horizontal move
G1 X23.7 Y8.8 E188.6 F3108.6 ;horizontal move
G1 Y8.9 E188.7 F3150.0 ;horizontal move
G1 X24.3 Y10.8 E190.7 ;horizontal move
G1 Y10.9 E190.8 F3106.5 ;horizontal move
G1 Y11.0 E190.9 F3150.0 ;horizontal move
G1 X24.4 Y13.8 E193.7 ;horizontal move
G1 Y13.9 E193.8 F3139.6 ;horizontal move
G1 Y14.6 E194.5 F3150.0 ;horizontal move
G1 Y14.7 E194.6 F3125.2 ;horizontal move
G1 X24.3 Y14.8 E194.7 F3150.0 ;horizontal move
G1 X23.9 Y16.6 E196.5 ;horizontal move
G1 Y16.7 E196.6 ;horizontal move
G1 X23.4 Y17.8 E197.9 ;horizontal move
G1 Y17.9 E198.0 ;horizontal move
G1 X22.4 Y19.6 E199.9 ;horizontal move
G1 X22.3 Y19.7 E200.1 ;horizontal move
G1 X21.1 Y21.2 E202.0 ;horizontal move
G1 X21.0 E202.1 F3112.9 ;horizontal move
G1 X20.9 Y21.3 E202.2 F3150.0 ;horizontal move
G1 X19.0 Y22.7 E204.6 ;horizontal move
G1 Y22.8 E204.7 F3116.4 ;horizontal move
G1 X18.9 E204.8 F3150.0 ;horizontal move
G1 X17.2 Y23.7 E206.7 ;horizontal move
G1 X17.1 E206.8 F3111.7 ;horizontal move
G1 X17.0 E206.9 F3150.0 ;horizontal move
G1 X14.4 Y24.4 E209.6 ;horizontal move
G1 X14.3 E209.7 F3135.0 ;horizontal move
G1 X13.2 Y24.5 E210.8 F3150.0 ;horizontal move
G1 X13.1 E210.9 F3123.2 ;horizontal move
G1 X11.0 Y24.3 E213.0 F3150.0 ;horizontal move
G1 X10.9 E213.1 F3110.5 ;horizontal move
G1 X10.8 E213.2 F3150.0 ;horizontal move
G1 X8.5 Y23.6 E215.6 ;horizontal move
G1 X8.4 Y23.5 E215.8 F3107.3 ;horizontal move
G1 X8.3 E215.9 F3150.0 ;horizontal move
G1 X6.3 Y22.3 E218.2 ;horizontal move
G1 X6.2 E218.3 F3126.1 ;horizontal move
G1 Y22.2 E218.4 F3150.0 ;horizontal move
G1 X4.8 Y21.0 E220.2 ;horizontal move
G1 X4.7 E220.3 F3122.0 ;horizontal move
G1 Y20.9 E220.4 F3150.0 ;horizontal move
G1 X3.4 Y19.4 E222.4 ;horizontal move
G1 Y19.3 E222.5 F3100.6 ;horizontal move
G1 X3.3 Y19.2 E222.7 F3150.0 ;horizontal move
G1 X2.3 Y17.1 E225.0 ;horizontal move
G1 Y17.0 E225.1 F3131.9 ;horizontal move
G1 X1.7 Y15.2 E227.0 F3150.0 ;horizontal move
G1 Y15.1 E227.1 F3111.1 ;horizontal move
G1 Y15.0 E227.2 F3150.0 ;horizontal move
G1 X1.5 Y12.8 E229.4 ;horizontal move
G1 Y12.7 E229.5 F3124.4 ;horizontal move
G1 X1.7 Y11.0 E231.2 F3150.0 ;horizontal move
G1 Y10.9 E231.3 F3116.9 ;horizontal move
G1 Y10.8 E231.4 F3150.0 ;horizontal move
G1 X2.4 Y8.5 E233.8 ;horizontal move
G1 X2.5 Y8.4 E234.0 F3091.7 ;horizontal move
G1 Y8.3 E234.1 F3150.0 ;horizontal move
G1 X3.1 Y7.4 E235.1 ;horizontal move
G1 X4.1 Y5.8 E237.0 F2274.8 ;horizontal move
G1 X5.3 Y4.4 E238.9 F945.0 ;horizontal move
G1 Y5.6 E240.1 F1905.0 ;horizontal move
G1 X5.0 Y6.0 E240.6 F2233.9 ;horizontal move
G1 X4.4 Y6.7 E241.5 F1692.8 ;horizontal move
G1 X6.5 Y8.8 E244.5 F3150.0 ;horizontal move
G1 X9.6 Y11.9 E248.8 ;horizontal move
G1 F18000.0; feed for start of next move
G1 E188.8; extruder retraction
G1 F1500.0; feed for start of next move
G1 X11.9 Y14.2 F3500.0 ;horizontal move
G1 F1500.0; feed for start of next move
G1 X15.2 Y16.7 F3500.0 ;horizontal move
G1 X17.2 Y18.1 ;horizontal move
G1 X20.5 Y20.6 F1500.0 ;horizontal move
G1 F18000.0; feed for start of next move
G1 E248.8; extruder dwell
G1 F1500.0; feed for start of next move
G1 Y21.1 E249.3 F1805.0 ;horizontal move
G1 X18.8 Y22.4 E251.5 F2895.8 ;horizontal move
G1 X18.2 Y22.7 E252.2 F3150.0 ;horizontal move
G1 X17.1 Y23.2 E253.4 ;horizontal move
G1 X17.0 E253.5 F3118.1 ;horizontal move
G1 X16.9 E253.6 F3150.0 ;horizontal move
G1 X14.4 Y23.9 E256.2 ;horizontal move
G1 X14.3 E256.3 F3114.3 ;horizontal move
G1 X14.2 E256.4 F3150.0 ;horizontal move
G1 X12.4 E258.2 ;horizontal move
G1 X12.3 E258.3 ;horizontal move
G1 X10.7 Y23.8 E259.9 ;horizontal move
G1 X10.6 E260.0 F3114.5 ;horizontal move
G1 X10.5 Y23.7 E260.1 F3150.0 ;horizontal move
G1 X9.0 Y23.2 E261.7 ;horizontal move
G1 X8.9 E261.8 F3119.7 ;horizontal move
G1 X6.6 Y21.9 E264.4 F3150.0 ;horizontal move
G1 X6.5 E264.5 F3110.7 ;horizontal move
G1 Y21.8 E264.6 F3150.0 ;horizontal move
G1 X5.1 Y20.6 E266.5 ;horizontal move
G1 X5.0 E266.6 F3126.3 ;horizontal move
G1 Y20.5 E266.7 F3150.0 ;horizontal move
G1 X3.8 Y19.1 E268.5 ;horizontal move
G1 Y19.0 E268.6 F3115.7 ;horizontal move
G1 X3.7 Y18.9 E268.8 F3150.0 ;horizontal move
G1 X2.8 Y17.0 E270.9 ;horizontal move
G1 X2.7 Y16.9 E271.0 F3104.1 ;horizontal move
G1 Y16.8 E271.1 F3150.0 ;horizontal move
G1 X2.2 Y14.9 E273.1 ;horizontal move
G1 Y14.7 E273.3 F3085.1 ;horizontal move
G1 Y14.5 E273.5 F3150.0 ;horizontal move
G1 X2.3 Y10.6 E277.4 ;horizontal move
G1 Y10.5 E277.5 F3094.5 ;horizontal move
G1 X2.4 Y10.4 E277.6 F3150.0 ;horizontal move
G1 X2.9 Y8.7 E279.4 ;horizontal move
G1 Y8.6 E279.5 F3110.4 ;horizontal move
G1 X3.0 Y8.5 E279.6 F3150.0 ;horizontal move
G1 X4.0 Y6.7 E281.7 ;horizontal move
G1 X4.1 Y6.6 E281.8 F3123.4 ;horizontal move
G1 Y6.5 E281.9 F3150.0 ;horizontal move
G1 X5.3 Y5.1 E283.8 ;horizontal move
G1 X5.4 Y5.0 E283.9 F3117.5 ;horizontal move
G1 X5.5 E284.0 F3150.0 ;horizontal move
G1 X6.8 Y3.9 E285.7 ;horizontal move
G1 X6.9 E285.8 ;horizontal move
G1 X8.8 Y2.9 E288.0 ;horizontal move
G1 X8.9 Y2.8 E288.1 F3106.3 ;horizontal move
G1 X9.0 E288.2 F3150.0 ;horizontal move
G1 X11.3 Y2.2 E290.6 ;horizontal move
G1 X11.4 E290.7 F3118.5 ;horizontal move
G1 X11.5 E290.8 F3150.0 ;horizontal move
G1 X13.3 Y2.0 E292.6 ;horizontal move
G1 X13.4 E292.7 F3134.5 ;horizontal move
G1 X14.8 Y2.2 E294.1 F3150.0 ;horizontal move
G1 X14.9 E294.2 F3109.6 ;horizontal move
G1 X15.0 E294.3 F3150.0 ;horizontal move
G1 X17.2 Y2.9 E296.6 ;horizontal move
G1 X17.3 E296.7 F3116.8 ;horizontal move
G1 X17.4 E296.8 F3150.0 ;horizontal move
G1 X19.2 Y3.9 E298.9 ;horizontal move
G1 X19.3 Y4.0 E299.0 F3120.8 ;horizontal move
G1 X20.8 Y5.3 E301.0 F3150.0 ;horizontal move
G1 X20.9 E301.1 F3100.8 ;horizontal move
G1 X21.0 Y5.4 E301.2 F3150.0 ;horizontal move
G1 X22.3 Y7.2 E303.5 ;horizontal move
G1 X23.2 Y8.9 E305.4 ;horizontal move
G1 X23.3 Y9.0 E305.5 F3106.1 ;horizontal move
G1 Y9.1 E305.6 F3150.0 ;horizontal move
G1 X23.8 Y11.0 E307.6 ;horizontal move
G1 Y11.1 E307.7 ;horizontal move
G1 X24.0 Y12.9 E309.5 ;horizontal move
G1 Y13.0 E309.6 F3121.2 ;horizontal move
G1 Y13.1 E309.7 F3150.0 ;horizontal move
G1 X23.8 Y14.8 E311.4 ;horizontal move
G1 Y14.9 E311.5 F3118.0 ;horizontal move
G1 Y15.0 E311.6 F3150.0 ;horizontal move
G1 X23.1 Y17.4 E314.1 ;horizontal move
G1 X23.0 Y17.5 E314.3 F3107.0 ;horizontal move
G1 Y17.6 E314.4 F3150.0 ;horizontal move
G1 X22.7 Y18.1 E314.9 ;horizontal move
G1 X21.9 Y19.4 E316.5 F2466.7 ;horizontal move
G1 X20.5 Y21.1 E318.7 F939.4 ;horizontal move
G1 Y20.6 E319.2 F1438.8 ;horizontal move
G1 F18000.0; feed for start of next move
G1 E259.2; extruder retraction
G1 F1500.0; feed for start of next move
G1 F18000.0; feed for start of next move
G1 E319.2; extruder dwell
G1 F1500.0; feed for start of next move
G1 X17.5 Y17.7 E323.3 F3500.0 ;horizontal move
G1 X8.3 Y8.5 E336.3 ;horizontal move
G1 X5.3 Y5.6 E340.5 F1500.0 ;horizontal move
G1 F18000.0; feed for start of next move
G1 E280.5; extruder retraction
G1 F1500.0; feed for start of next move
G1 X5.9 Y5.1 F2030.9 ;horizontal move
G1 X6.5 Y4.6 F1500.0 ;horizontal move
G1 F18000.0; feed for start of next move
G1 E340.5; extruder dwell
G1 F1500.0; feed for start of next move
G1 X9.4 Y7.5 E344.6 F3500.0 ;horizontal move
G1 X18.4 Y16.4 E357.3 ;horizontal move
G1 X21.5 Y19.4 E361.6 F1322.5 ;horizontal move
G1 X22.1 Y18.4 E362.8 F2130.8 ;horizontal move
G1 X22.2 Y18.2 E363.0 F1993.2 ;horizontal move
G1 X19.8 Y15.8 E366.4 F3500.0 ;horizontal move
G1 X10.8 Y6.7 E379.2 ;horizontal move
G1 X7.9 Y3.8 E383.3 F1500.0 ;horizontal move
G1 F18000.0; feed for start of next move
G1 E323.3; extruder retraction
G1 F1500.0; feed for start of next move
G1 X10.4 Y3.1 F2892.3 ;horizontal move
G1 X12.8 Y2.4 F1500.0 ;horizontal move
G1 F18000.0; feed for start of next move
G1 E383.3; extruder dwell
G1 F1500.0; feed for start of next move
G1 X15.8 Y5.3 E387.4 F3500.0 ;horizontal move
G1 X20.1 Y9.7 E393.6 ;horizontal move
G1 X23.5 Y13.0 E398.3 F969.7 ;horizontal move
G1 Y11.0 E400.3 F2385.8 ;horizontal move
G1 X21.5 Y9.1 E403.1 F3500.0 ;horizontal move
G1 X18.5 Y6.0 E407.4 ;horizontal move
G1 X15.1 Y2.6 E412.2 F851.5 ;horizontal move
G1 X16.4 Y2.9 E413.6 F2002.2 ;horizontal move
G1 X18.4 Y3.8 E415.7 F3016.3 ;horizontal move
G1 X19.1 Y4.6 E416.8 F3417.9 ;horizontal move
G1 X22.0 Y7.3 E420.8 F1500.0 ;horizontal move
G1 F18000.0; feed for start of next move
G1 E360.8; extruder retraction
G1 F1500.0; feed for start of next move
G1 X22.7 Y11.2 F3429.2 ;horizontal move
G1 X23.4 Y15.1 F1500.0 ;horizontal move
G1 F18000.0; feed for start of next move
G1 E420.8; extruder dwell
G1 F1500.0; feed for start of next move
G1 X20.4 Y12.2 E424.9 F3500.0 ;horizontal move
G1 X12.9 Y4.6 E435.6 ;horizontal move
G1 X10.8 Y2.6 E438.5 F2288.6 ;horizontal move
G1 X9.2 Y3.1 E440.2 F1149.1 ;horizontal move
G1 X12.5 Y6.3 E444.8 F3500.0 ;horizontal move
G1 X20.0 Y13.8 E455.4 ;horizontal move
G1 X22.9 Y16.7 E459.5 F1500.0 ;horizontal move
G1 F18000.0; feed for start of next move
G1 E399.5; extruder retraction
G1 F1500.0; feed for start of next move
G1 X21.1 Y19.2 F3089.7 ;horizontal move
G1 X19.3 Y21.6 F1500.0 ;horizontal move
G1 F18000.0; feed for start of next move
G1 E459.5; extruder dwell
G1 F1500.0; feed for start of next move
G1 X16.4 Y18.7 E463.6 F3500.0 ;horizontal move
G1 X14.8 Y17.1 E465.9 ;horizontal move
G1 X11.9 Y14.2 E470.0 F1500.0 ;horizontal move
G1 F18000.0; feed for start of next move
G1 E410.0; extruder retraction
G1 F1500.0; feed for start of next move
G1 X8.7 Y16.9 F3500.0 ;horizontal move
G1 X8.2 Y17.4 ;horizontal move
G1 X5.0 Y20.1 F1500.0 ;horizontal move
G1 F18000.0; feed for start of next move
G1 E470.0; extruder dwell
G1 F1500.0; feed for start of next move
G1 X6.5 Y21.4 E472.0 F2654.3 ;horizontal move
G1 X7.2 Y21.8 E472.8 F2964.7 ;horizontal move
G1 X8.3 Y22.6 E474.1 F2328.1 ;horizontal move
G1 X10.2 Y23.2 E476.1 F826.7 ;horizontal move
G1 X6.8 Y19.8 E480.9 F3500.0 ;horizontal move
G1 X4.4 Y17.3 E484.4 ;horizontal move
G1 X2.6 Y15.5 E486.9 F2489.9 ;horizontal move
G1 X2.3 Y13.3 E489.2 F907.4 ;horizontal move
G1 X5.7 Y16.6 E493.9 F3500.0 ;horizontal move
G1 X10.8 Y21.6 E501.0 ;horizontal move
G1 X12.9 Y23.6 E503.9 F2293.3 ;horizontal move
G1 X14.6 Y23.5 E505.6 F1029.9 ;horizontal move
G1 X11.4 Y20.1 E510.3 F3500.0 ;horizontal move
G1 X5.4 Y14.1 E518.8 ;horizontal move
G1 X2.5 Y11.2 E522.9 F1500.0 ;horizontal move
G1 F18000.0; feed for start of next move
G1 E462.9; extruder retraction
G1 F1500.0; feed for start of next move
G1 X2.7 Y10.4 F2084.6 ;horizontal move
G1 X2.9 Y9.5 F1500.0 ;horizontal move
G1 F18000.0; feed for start of next move
G1 E522.9; extruder dwell
G1 F1500.0; feed for start of next move
G1 X5.9 Y12.5 E527.1 F3500.0 ;horizontal move
G1 X14.4 Y20.9 E539.1 ;horizontal move
G1 X16.5 Y23.0 E542.1 F2237.2 ;horizontal move
G1 X17.9 Y22.4 E543.6 F1228.0 ;horizontal move
G1 X14.7 Y19.3 E548.0 F3500.0 ;horizontal move
G1 X6.6 Y11.1 E559.6 ;horizontal move
G1 X3.7 Y8.1 E563.7 F1500.0 ;horizontal move
G1 F18000.0; feed for start of next move
G1 E503.7; extruder retraction
G1 F1500.0; feed for start of next move
;#!LAYER: 4/66
G28 X0 ;set x 0
G28 Y0 ;set y 0
G92 E0 ;zero the extruded length
G92 E0 ;zero the extruded length
G92 E0 ;zero the extruded length
T1; select new extruder
M113; set extruder to use pot for PWM
G92 E0 ;zero the extruded length
T0; select new extruder
M113; set extruder to use pot for PWM
G1 F50.0; feed for start of next move
G1 Z1.1 ;z move
T0; select new extruder
M113; set extruder to use pot for PWM
G1 F1500.0; feed for start of next move
G1 X-1.5 Y-1.5 F2709.5 ;horizontal move
G1 X-3.0 Y-3.0 F1500.0 ;horizontal move
G1 F18000.0; feed for start of next move
G1 E60.0; extruder dwell
G1 F1500.0; feed for start of next move
G1 F3500.0; feed for start of next move
G1 E85.0; extruder dwell
G1 F1500.0; feed for start of next move
G1 Y1.2 E89.2 F3500.0 ;horizontal move
G1 Y2.8 E90.8 ;horizontal move
G1 Y7.0 E95.0 F1500.0 ;horizontal move
G1 X-4.0 E96.0 F2156.4 ;horizontal move
G1 X-5.0 E97.0 F1500.0 ;horizontal move
G1 Y2.8 E101.2 F3500.0 ;horizontal move
G1 Y-0.8 E104.8 ;horizontal move
G1 Y-5.0 E109.0 F1500.0 ;horizontal move
G1 X-0.8 E113.2 F3500.0 ;horizontal move
G1 X12.8 E126.8 ;horizontal move
G1 X17.0 E131.0 F1500.0 ;horizontal move
G1 Y-4.0 E132.0 F2156.4 ;horizontal move
G1 Y-3.0 E133.0 F1500.0 ;horizontal move
G1 X12.8 E137.2 F3500.0 ;horizontal move
G1 X1.2 E148.8 ;horizontal move
G1 X-3.0 E153.0 F1500.0 ;horizontal move
G1 F18000.0; feed for start of next move
G1 E93.0; extruder retraction
G1 F1500.0; feed for start of next move
G1 X-0.1 Y0.0 F3500.0 ;horizontal move
G1 X8.9 Y8.9 ;horizontal move
G1 X11.8 Y11.9 F1500.0 ;horizontal move
G1 F18000.0; feed for start of next move
G1 E153.0; extruder dwell
G1 F1500.0; feed for start of next move
G1 X9.6 Y14.1 E156.1 F3150.0 ;horizontal move
G1 X6.5 Y17.3 E160.6 ;horizontal move
G1 X4.4 Y19.3 E163.5 F1711.3 ;horizontal move
G1 X4.7 Y19.6 E163.9 F1938.9 ;horizontal move
G1 X5.3 Y20.4 E164.9 F1143.1 ;horizontal move
G1 X4.9 Y20.5 E165.3 F1477.4 ;horizontal move
G1 X3.8 Y19.1 E167.1 F2505.2 ;horizontal move
G1 X3.2 Y17.8 E168.5 F3150.0 ;horizontal move
G1 X2.8 Y17.0 E169.4 ;horizontal move
G1 X2.7 Y16.9 E169.6 ;horizontal move
G1 X2.2 Y15.0 E171.5 ;horizontal move
G1 X2.1 Y14.8 E171.7 F3070.5 ;horizontal move
G1 Y14.6 E171.9 F3150.0 ;horizontal move
G1 X2.2 Y11.1 E175.4 ;horizontal move
G1 Y10.9 E175.6 F3073.1 ;horizontal move
G1 Y10.7 E175.8 F3150.0 ;horizontal move
G1 X2.9 Y8.6 E178.1 ;horizontal move
G1 Y8.5 E178.2 F3119.1 ;horizontal move
G1 X3.0 Y8.4 E178.3 F3150.0 ;horizontal move
G1 X3.9 Y6.8 E180.1 ;horizontal move
G1 X4.0 Y6.7 E180.3 F3125.6 ;horizontal move
G1 X5.3 Y5.1 E182.3 F3150.0 ;horizontal move
G1 Y5.0 E182.4 F3114.3 ;horizontal move
G1 X5.4 E182.5 F3150.0 ;horizontal move
G1 X6.8 Y3.9 E184.3 ;horizontal move
G1 Y3.8 E184.4 F3109.7 ;horizontal move
G1 X6.9 E184.5 F3150.0 ;horizontal move
G1 X9.1 Y2.7 E187.0 ;horizontal move
G1 X9.2 E187.1 F3116.6 ;horizontal move
G1 X9.3 E187.2 F3150.0 ;horizontal move
G1 X11.2 Y2.2 E189.1 ;horizontal move
G1 X11.3 E189.2 F3118.3 ;horizontal move
G1 X11.4 E189.3 F3150.0 ;horizontal move
G1 X13.3 Y2.0 E191.3 ;horizontal move
G1 X13.4 E191.4 F3113.0 ;horizontal move
G1 X13.5 Y2.1 E191.5 F3150.0 ;horizontal move
G1 X15.7 Y2.4 E193.7 ;horizontal move
G1 X15.8 E193.8 ;horizontal move
G1 X17.2 Y2.8 E195.3 ;horizontal move
G1 X17.3 Y2.9 E195.4 F3096.1 ;horizontal move
G1 X17.5 Y3.0 E195.6 F3150.0 ;horizontal move
G1 X19.6 Y4.2 E198.1 ;horizontal move
G1 Y4.3 E198.2 F3134.7 ;horizontal move
G1 X19.7 E198.3 F3150.0 ;horizontal move
G1 X20.8 Y5.2 E199.7 ;horizontal move
G1 X20.9 Y5.3 E199.8 F3119.8 ;horizontal move
G1 X22.1 Y6.7 E201.7 F3150.0 ;horizontal move
G1 Y6.8 E201.8 F3108.7 ;horizontal move
G1 X22.2 Y6.9 E201.9 F3150.0 ;horizontal move
G1 X23.2 Y8.9 E204.1 ;horizontal move
G1 X23.3 Y9.0 E204.3 F3113.6 ;horizontal move
G1 Y9.1 E204.4 F3150.0 ;horizontal move
G1 X23.8 Y11.1 E206.4 ;horizontal move
G1 X23.9 Y11.2 E206.6 F3102.0 ;horizontal move
G1 Y11.3 E206.7 F3150.0 ;horizontal move
G1 Y13.9 E209.3 ;horizontal move
G1 X23.8 Y15.2 E210.6 ;horizontal move
G1 Y15.3 E210.7 F3098.2 ;horizontal move
G1 Y15.4 E210.8 F3150.0 ;horizontal move
G1 X23.1 Y17.4 E212.9 ;horizontal move
G1 X23.0 Y17.5 E213.0 F3120.9 ;horizontal move
G1 Y17.6 E213.1 F3150.0 ;horizontal move
G1 X22.0 Y19.3 E215.1 ;horizontal move
G1 Y19.4 E215.2 F3113.7 ;horizontal move
G1 X21.9 Y19.5 E215.4 F3150.0 ;horizontal move
G1 X20.3 Y21.3 E217.8 ;horizontal move
G1 X20.2 E217.9 F3125.2 ;horizontal move
G1 X19.2 Y22.1 E219.1 F3150.0 ;horizontal move
G1 X19.1 E219.2 F3121.3 ;horizontal move
G1 Y22.2 E219.3 F3150.0 ;horizontal move
G1 X17.0 Y23.2 E221.7 ;horizontal move
G1 X16.9 Y23.3 E221.8 F3117.0 ;horizontal move
G1 X16.8 E221.9 F3150.0 ;horizontal move
G1 X15.1 Y23.8 E223.7 ;horizontal move
G1 X15.0 E223.8 F3108.3 ;horizontal move
G1 X14.9 E223.9 F3150.0 ;horizontal move
G1 X12.6 Y23.9 E226.2 ;horizontal move
G1 X12.5 E226.3 F3131.0 ;horizontal move
G1 X10.9 Y23.8 E227.9 F3150.0 ;horizontal move
G1 X10.8 E228.0 F3124.7 ;horizontal move
G1 X10.7 Y23.7 E228.1 F3150.0 ;horizontal move
G1 X8.9 Y23.2 E230.0 ;horizontal move
G1 X8.7 E230.2 F3087.5 ;horizontal move
G1 X8.6 Y23.1 E230.3 F3150.0 ;horizontal move
G1 X7.9 Y22.6 E231.2 ;horizontal move
G1 X6.2 Y21.6 E233.2 F2268.8 ;horizontal move
G1 X4.9 Y20.5 E234.9 F1034.1 ;horizontal move
G1 X5.1 Y20.4 E235.1 F1275.2 ;horizontal move
G1 X5.3 E235.3 F1143.1 ;horizontal move
G1 X4.7 Y19.6 E236.3 F1938.9 ;horizontal move
G1 X4.4 Y19.3 E236.7 F1711.3 ;horizontal move
G1 X6.5 Y17.3 E239.6 F3150.0 ;horizontal move
G1 X9.6 Y14.1 E244.1 ;horizontal move
G1 F18000.0; feed for start of next move
G1 E184.1; extruder retraction
G1 F1500.0; feed for start of next move
G1 X11.8 Y11.9 F3500.0 ;horizontal move
G1 F1500.0; feed for start of next move
G1 X12.4 Y12.4 F2008.5 ;horizontal move
G1 X12.9 Y12.9 F1500.0 ;horizontal move
G1 F18000.0; feed for start of next move
G1 E244.1; extruder dwell
G1 F1500.0; feed for start of next move
G1 X15.1 Y10.7 E247.2 F3150.0 ;horizontal move
G1 X19.0 Y6.8 E252.7 ;horizontal move
G1 X20.5 Y5.4 E254.8 F2236.4 ;horizontal move
G1 X21.2 Y4.9 E255.6 F1710.2 ;horizontal move
G1 X22.4 Y6.3 E257.5 F2704.4 ;horizontal move
G1 X22.9 Y7.3 E258.6 F3150.0 ;horizontal move
G1 X23.7 Y8.8 E260.3 ;horizontal move
G1 X23.8 Y8.9 E260.4 F3108.7 ;horizontal move
G1 Y9.0 E260.5 F3150.0 ;horizontal move
G1 X24.3 Y11.1 E262.7 ;horizontal move
G1 X24.4 Y11.2 E262.8 F3114.2 ;horizontal move
G1 Y11.3 E262.9 F3150.0 ;horizontal move
G1 X24.5 Y13.6 E265.2 ;horizontal move
G1 Y13.7 E265.3 F3125.3 ;horizontal move
G1 X24.3 Y15.5 E267.1 F3150.0 ;horizontal move
G1 X24.2 Y15.6 E267.3 F3106.1 ;horizontal move
G1 Y15.7 E267.4 F3150.0 ;horizontal move
G1 X23.5 Y17.7 E269.5 ;horizontal move
G1 X23.4 E269.6 ;horizontal move
G1 X22.4 Y19.7 E271.8 ;horizontal move
G1 X22.3 E271.9 F3115.1 ;horizontal move
G1 Y19.8 E272.0 F3150.0 ;horizontal move
G1 X21.2 Y21.1 E273.7 ;horizontal move
G1 X21.1 E273.8 F3126.4 ;horizontal move
G1 Y21.2 E273.9 F3150.0 ;horizontal move
G1 X19.2 Y22.7 E276.4 ;horizontal move
G1 X19.1 E276.5 F3095.8 ;horizontal move
G1 X19.0 Y22.8 E276.6 F3150.0 ;horizontal move
G1 X17.1 Y23.7 E278.7 ;horizontal move
G1 X17.0 E278.8 F3127.1 ;horizontal move
G1 X14.7 Y24.3 E281.2 F3150.0 ;horizontal move
G1 X14.6 Y24.4 E281.3 F3105.2 ;horizontal move
G1 X14.5 E281.4 F3150.0 ;horizontal move
G1 X12.5 E283.4 ;horizontal move
G1 X12.4 E283.5 ;horizontal move
G1 X10.3 Y24.1 E285.6 ;horizontal move
G1 X10.2 E285.7 F3123.3 ;horizontal move
G1 X10.1 E285.8 F3150.0 ;horizontal move
G1 X8.6 Y23.6 E287.4 ;horizontal move
G1 X8.5 E287.5 F3119.1 ;horizontal move
G1 X8.4 Y23.5 E287.7 F3150.0 ;horizontal move
G1 X6.3 Y22.4 E290.0 ;horizontal move
G1 X6.2 Y22.3 E290.2 F3108.0 ;horizontal move
G1 Y22.2 E290.3 F3150.0 ;horizontal move
G1 X4.5 Y20.8 E292.5 ;horizontal move
G1 Y20.7 E292.6 ;horizontal move
G1 X3.7 Y19.8 E293.8 ;horizontal move
G1 X3.6 Y19.7 E293.9 F3113.3 ;horizontal move
G1 Y19.6 E294.0 F3150.0 ;horizontal move
G1 X2.4 Y17.3 E296.6 ;horizontal move
G1 X2.3 E296.7 F3121.9 ;horizontal move
G1 Y17.2 E296.8 F3150.0 ;horizontal move
G1 X1.7 Y15.2 E298.9 ;horizontal move
G1 X1.6 Y14.9 E299.2 F3056.1 ;horizontal move
G1 Y14.7 E299.4 F3150.0 ;horizontal move
G1 X1.8 Y10.6 E303.5 ;horizontal move
G1 Y10.5 E303.6 F3096.2 ;horizontal move
G1 Y10.4 E303.7 F3150.0 ;horizontal move
G1 X2.4 Y8.5 E305.7 ;horizontal move
G1 X2.5 Y8.3 E305.9 F3101.2 ;horizontal move
G1 Y8.2 E306.0 F3150.0 ;horizontal move
G1 X3.7 Y6.3 E308.3 ;horizontal move
G1 Y6.2 E308.4 F3130.4 ;horizontal move
G1 X3.8 E308.5 F3150.0 ;horizontal move
G1 X4.9 Y4.9 E310.2 ;horizontal move
G1 Y4.8 E310.3 F3120.8 ;horizontal move
G1 X5.0 E310.4 F3150.0 ;horizontal move
G1 X6.5 Y3.5 E312.4 ;horizontal move
G1 X6.6 Y3.4 E312.5 F3101.0 ;horizontal move
G1 X6.7 E312.6 F3150.0 ;horizontal move
G1 X8.9 Y2.3 E315.1 ;horizontal move
G1 X9.0 E315.2 F3119.5 ;horizontal move
G1 X9.1 E315.3 F3150.0 ;horizontal move
G1 X11.3 Y1.7 E317.6 ;horizontal move
G1 X11.4 E317.7 ;horizontal move
G1 X13.0 Y1.5 E319.3 ;horizontal move
G1 X13.1 E319.4 F3110.2 ;horizontal move
G1 X13.2 E319.5 F3150.0 ;horizontal move
G1 X15.1 Y1.7 E321.4 ;horizontal move
G1 X15.2 E321.5 ;horizontal move
G1 X17.1 Y2.2 E323.4 ;horizontal move
G1 X17.2 Y2.3 E323.6 F3091.3 ;horizontal move
G1 X17.4 Y2.4 E323.8 F3150.0 ;horizontal move
G1 X18.4 Y2.9 E324.9 ;horizontal move
G1 X19.7 Y3.7 E326.5 F2480.9 ;horizontal move
G1 X21.2 Y4.9 E328.4 F1286.9 ;horizontal move
G1 X20.5 Y5.4 E329.2 F1932.1 ;horizontal move
G1 X18.6 Y7.2 E331.9 F3150.0 ;horizontal move
G1 X15.1 Y10.7 E336.8 ;horizontal move
G1 F18000.0; feed for start of next move
G1 E276.8; extruder retraction
G1 F1500.0; feed for start of next move
G1 X12.9 Y12.9 F3500.0 ;horizontal move
G1 F1500.0; feed for start of next move
G1 X15.9 Y10.0 F3500.0 ;horizontal move
G1 X17.5 Y8.3 ;horizontal move
G1 X20.5 Y5.4 F1500.0 ;horizontal move
G1 F18000.0; feed for start of next move
G1 E336.8; extruder dwell
G1 F1500.0; feed for start of next move
G1 X21.0 Y6.0 E337.6 F2025.7 ;horizontal move
G1 X21.4 Y6.4 E338.2 F1640.8 ;horizontal move
G1 X18.6 Y9.3 E342.2 F3500.0 ;horizontal move
G1 X9.6 Y18.4 E355.0 ;horizontal move
G1 X6.5 Y21.5 E359.4 F1323.9 ;horizontal move
G1 X7.5 Y22.1 E360.5 F2131.2 ;horizontal move
G1 X7.7 Y22.2 E360.8 F1993.1 ;horizontal move
G1 X10.2 Y19.8 E364.2 F3500.0 ;horizontal move
G1 X19.3 Y10.7 E377.1 ;horizontal move
G1 X22.3 Y7.8 E381.3 F1500.0 ;horizontal move
G1 F18000.0; feed for start of next move
G1 E321.3; extruder retraction
G1 F1500.0; feed for start of next move
G1 X19.4 Y5.4 F3370.7 ;horizontal move
G1 X16.5 Y2.9 F1500.0 ;horizontal move
G1 F18000.0; feed for start of next move
G1 E381.3; extruder dwell
G1 F1500.0; feed for start of next move
G1 X13.6 Y5.9 E385.4 F3500.0 ;horizontal move
G1 X5.1 Y14.4 E397.5 ;horizontal move
G1 X2.9 Y16.5 E400.5 F2233.0 ;horizontal move
G1 X3.0 E400.6 F2248.7 ;horizontal move
G1 X3.5 Y17.9 E402.1 F1231.0 ;horizontal move
G1 X6.7 Y14.7 E406.6 F3500.0 ;horizontal move
G1 X15.6 Y6.0 E419.1 ;horizontal move
G1 X18.0 Y3.7 E422.4 F2042.4 ;horizontal move
G1 X18.2 Y3.8 E422.6 F2163.2 ;horizontal move
G1 X19.3 Y4.4 E423.9 F1305.6 ;horizontal move
G1 X16.2 Y7.5 E428.2 F3500.0 ;horizontal move
G1 X14.8 Y8.9 E430.2 ;horizontal move
G1 X11.8 Y11.9 E434.5 F1500.0 ;horizontal move
G1 F18000.0; feed for start of next move
G1 E374.5; extruder retraction
G1 F1500.0; feed for start of next move
G1 X12.4 Y12.4 F2008.5 ;horizontal move
G1 X12.9 Y12.9 F1500.0 ;horizontal move
G1 F18000.0; feed for start of next move
G1 E434.5; extruder dwell
G1 F1500.0; feed for start of next move
G1 X9.9 Y15.8 E438.6 F3500.0 ;horizontal move
G1 X8.2 Y17.5 E441.0 ;horizontal move
G1 X5.3 Y20.4 E445.1 F1500.0 ;horizontal move
G1 F18000.0; feed for start of next move
G1 E385.1; extruder retraction
G1 F1500.0; feed for start of next move
G1 X7.3 Y21.7 F2806.2 ;horizontal move
G1 X9.2 Y23.0 F1500.0 ;horizontal move
G1 F18000.0; feed for start of next move
G1 E445.1; extruder dwell
G1 F1500.0; feed for start of next move
G1 X12.2 Y20.0 E449.4 F3500.0 ;horizontal move
G1 X19.7 Y12.5 E460.0 ;horizontal move
G1 X23.0 Y9.2 E464.7 F1132.3 ;horizontal move
G1 X23.4 Y10.7 E466.2 F2240.7 ;horizontal move
G1 X21.3 Y12.9 E469.3 F3500.0 ;horizontal move
G1 X14.1 Y20.1 E479.4 ;horizontal move
G1 X10.9 Y23.5 E484.1 F1029.2 ;horizontal move
G1 X12.7 Y23.6 E485.9 F2324.0 ;horizontal move
G1 X14.7 Y21.6 E488.7 F3500.0 ;horizontal move
G1 X20.1 Y16.3 E496.3 ;horizontal move
G1 X23.5 Y13.0 E501.0 F972.6 ;horizontal move
G1 Y14.9 E502.9 F2387.1 ;horizontal move
G1 X21.6 Y16.9 E505.7 F3500.0 ;horizontal move
G1 X18.5 Y20.0 E510.1 ;horizontal move
G1 X15.1 Y23.5 E515.0 F840.9 ;horizontal move
G1 X16.7 Y23.0 E516.6 F2150.4 ;horizontal move
G1 X18.2 Y22.3 E518.3 F2957.7 ;horizontal move
G1 X19.2 Y21.3 E519.7 F3466.5 ;horizontal move
G1 X22.1 Y18.5 E523.7 F1500.0 ;horizontal move
G1 F18000.0; feed for start of next move
G1 E463.7; extruder retraction
G1 F1500.0; feed for start of next move
G1 X20.4 Y14.7 F3500.0 ;horizontal move
G1 X16.5 Y6.3 ;horizontal move
G1 X14.8 Y2.5 F1500.0 ;horizontal move
G1 F18000.0; feed for start of next move
G1 E523.7; extruder dwell
G1 F1500.0; feed for start of next move
G1 X11.8 Y5.5 E528.0 F3500.0 ;horizontal move
G1 X5.8 Y11.4 E536.4 ;horizontal move
G1 X2.5 Y14.7 E541.1 F1008.9 ;horizontal move
G1 X2.3 Y12.9 E542.9 F2312.5 ;horizontal move
G1 X4.4 Y10.8 E545.8 F3500.0 ;horizontal move
G1 X9.4 Y5.7 E553.0 ;horizontal move
G1 X12.7 Y2.3 E557.7 F905.7 ;horizontal move
G1 X10.6 Y2.6 E559.8 F2460.5 ;horizontal move
G1 X8.7 Y4.4 E562.5 F3500.0 ;horizontal move
G1 X6.2 Y6.9 E566.0 ;horizontal move
G1 X2.7 Y10.3 E570.9 F838.7 ;horizontal move
G1 X3.2 Y8.8 E572.5 F2117.4 ;horizontal move
G1 X4.1 Y7.2 E574.3 F2984.4 ;horizontal move
G1 X4.4 Y6.7 E574.9 F2729.8 ;horizontal move
G1 X5.9 Y5.0 E577.1 F1500.0 ;horizontal move
G1 F18000.0; feed for start of next move
G1 E517.1; extruder retraction
G1 F1500.0; feed for start of next move
;#!LAYER: 5/66
G28 X0 ;set x 0
G28 Y0 ;set y 0
G92 E0 ;zero the extruded length
G92 E0 ;zero the extruded length
G92 E0 ;zero the extruded length
T1; select new extruder
M113; set extruder to use pot for PWM
G92 E0 ;zero the extruded length
T0; select new extruder
M113; set extruder to use pot for PWM
G1 F50.0; feed for start of next move
G1 Z1.4 ;z move
T0; select new extruder
M113; set extruder to use pot for PWM
G1 F1500.0; feed for start of next move
G1 X-1.5 Y-1.5 F2709.5 ;horizontal move
G1 X-3.0 Y-3.0 F1500.0 ;horizontal move
G1 F18000.0; feed for start of next move
G1 E60.0; extruder dwell
G1 F1500.0; feed for start of next move
G1 F3500.0; feed for start of next move
G1 E85.0; extruder dwell
G1 F1500.0; feed for start of next move
G1 Y1.2 E89.2 F3500.0 ;horizontal move
G1 Y2.8 E90.8 ;horizontal move
G1 Y7.0 E95.0 F1500.0 ;horizontal move
G1 X-4.0 E96.0 F2156.4 ;horizontal move
G1 X-5.0 E97.0 F1500.0 ;horizontal move
G1 Y2.8 E101.2 F3500.0 ;horizontal move
G1 Y-0.8 E104.8 ;horizontal move
G1 Y-5.0 E109.0 F1500.0 ;horizontal move
G1 X-0.8 E113.2 F3500.0 ;horizontal move
G1 X12.8 E126.8 ;horizontal move
G1 X17.0 E131.0 F1500.0 ;horizontal move
G1 Y-4.0 E132.0 F2156.4 ;horizontal move
G1 Y-3.0 E133.0 F1500.0 ;horizontal move
G1 X12.8 E137.2 F3500.0 ;horizontal move
G1 X1.2 E148.8 ;horizontal move
G1 X-3.0 E153.0 F1500.0 ;horizontal move
G1 F18000.0; feed for start of next move
G1 E93.0; extruder retraction
G1 F1500.0; feed for start of next move
G1 X-0.1 Y0.0 F3500.0 ;horizontal move
G1 X2.4 Y2.5 ;horizontal move
G1 X5.3 Y5.5 F1500.0 ;horizontal move
G1 F18000.0; feed for start of next move
G1 E153.0; extruder dwell
G1 F1500.0; feed for start of next move
G1 Y5.0 E153.5 F1844.5 ;horizontal move
G1 X7.1 Y3.7 E155.7 F2940.0 ;horizontal move
G1 X7.6 Y3.5 E156.3 F3150.0 ;horizontal move
G1 X8.9 Y2.8 E157.7 ;horizontal move
G1 X9.0 Y2.7 E157.9 F3096.8 ;horizontal move
G1 X9.1 E158.0 F3150.0 ;horizontal move
G1 X11.4 Y2.1 E160.4 ;horizontal move
G1 X11.5 E160.5 F3115.7 ;horizontal move
G1 X11.6 E160.6 F3150.0 ;horizontal move
G1 X13.5 Y2.0 E162.5 ;horizontal move
G1 X13.6 E162.6 F3141.2 ;horizontal move
G1 X15.0 Y2.1 E164.0 F3150.0 ;horizontal move
G1 X15.2 Y2.2 E164.2 F3096.4 ;horizontal move
G1 X15.3 E164.3 F3150.0 ;horizontal move
G1 X17.4 Y2.9 E166.5 ;horizontal move
G1 X17.5 E166.6 F3106.1 ;horizontal move
G1 X17.6 Y3.0 E166.7 F3150.0 ;horizontal move
G1 X20.0 Y4.5 E169.6 ;horizontal move
G1 Y4.6 E169.7 F3125.6 ;horizontal move
G1 X20.1 E169.8 F3150.0 ;horizontal move
G1 X21.2 Y5.6 E171.3 ;horizontal move
G1 X21.3 Y5.7 E171.4 ;horizontal move
G1 X21.9 Y6.5 E172.4 ;horizontal move
G1 X22.0 E172.5 F3131.8 ;horizontal move
G1 Y6.6 E172.6 F3150.0 ;horizontal move
G1 X23.0 Y8.3 E174.6 ;horizontal move
G1 Y8.4 E174.7 F3104.0 ;horizontal move
G1 X23.1 Y8.5 E174.8 F3150.0 ;horizontal move
G1 X23.9 Y11.1 E177.5 ;horizontal move
G1 Y11.2 E177.6 F3120.4 ;horizontal move
G1 Y11.3 E177.7 F3150.0 ;horizontal move
G1 X24.1 Y12.9 E179.3 ;horizontal move
G1 Y13.0 E179.4 F3118.4 ;horizontal move
G1 Y13.1 E179.5 F3150.0 ;horizontal move
G1 X23.9 Y14.8 E181.3 ;horizontal move
G1 Y14.9 E181.4 F3122.8 ;horizontal move
G1 X23.2 Y17.2 E183.8 F3150.0 ;horizontal move
G1 Y17.4 E184.0 F3079.7 ;horizontal move
G1 X23.1 Y17.6 E184.2 F3150.0 ;horizontal move
G1 X21.6 Y19.9 E186.9 ;horizontal move
G1 X21.5 E187.0 F3138.6 ;horizontal move
G1 X20.8 Y20.9 E188.2 F3150.0 ;horizontal move
G1 X20.7 E188.3 F3119.9 ;horizontal move
G1 X20.6 Y21.0 E188.5 F3150.0 ;horizontal move
G1 X19.4 Y22.0 E190.1 ;horizontal move
G1 X19.3 Y22.1 E190.2 F3107.7 ;horizontal move
G1 X19.2 E190.3 F3150.0 ;horizontal move
G1 X17.1 Y23.2 E192.7 ;horizontal move
G1 X17.0 E192.8 F3127.0 ;horizontal move
G1 X15.0 Y23.8 E194.9 F3150.0 ;horizontal move
G1 X14.9 Y23.9 E195.0 F3101.1 ;horizontal move
G1 X14.8 E195.1 F3150.0 ;horizontal move
G1 X12.6 Y24.0 E197.3 ;horizontal move
G1 X11.2 Y23.9 E198.7 ;horizontal move
G1 X11.1 E198.8 F3120.0 ;horizontal move
G1 X11.0 E198.9 F3150.0 ;horizontal move
G1 X9.1 Y23.3 E200.9 ;horizontal move
G1 X8.9 E201.1 F3105.8 ;horizontal move
G1 X8.8 Y23.2 E201.2 F3150.0 ;horizontal move
G1 X6.6 Y22.0 E203.7 ;horizontal move
G1 X6.5 E203.8 F3118.5 ;horizontal move
G1 Y21.9 E203.9 F3150.0 ;horizontal move
G1 X5.1 Y20.8 E205.7 ;horizontal move
G1 X5.0 Y20.7 E205.9 F3118.0 ;horizontal move
G1 Y20.6 E206.0 F3150.0 ;horizontal move
G1 X3.9 Y19.3 E207.7 ;horizontal move
G1 X3.8 Y19.2 E207.8 F3113.4 ;horizontal move
G1 Y19.1 E207.9 F3150.0 ;horizontal move
G1 X2.7 Y17.0 E210.3 ;horizontal move
G1 Y16.9 E210.4 F3125.6 ;horizontal move
G1 X2.2 Y15.2 E212.1 F3150.0 ;horizontal move
G1 Y15.1 E212.2 F3107.9 ;horizontal move
G1 Y15.0 E212.3 F3150.0 ;horizontal move
G1 X2.0 Y12.4 E215.0 ;horizontal move
G1 Y12.3 E215.1 ;horizontal move
G1 X2.2 Y10.6 E216.8 ;horizontal move
G1 Y10.5 E216.9 ;horizontal move
G1 X2.9 Y8.5 E219.0 ;horizontal move
G1 X3.0 Y8.4 E219.1 ;horizontal move
G1 X3.1 Y8.1 E219.4 ;horizontal move
G1 X4.0 Y6.7 E221.1 F2443.5 ;horizontal move
G1 X5.3 Y5.0 E223.2 F929.1 ;horizontal move
G1 Y5.5 E223.7 F1460.3 ;horizontal move
G1 F18000.0; feed for start of next move
G1 E163.7; extruder retraction
G1 F1500.0; feed for start of next move
G1 X8.6 Y8.0 F3500.0 ;horizontal move
G1 X10.7 Y9.5 ;horizontal move
G1 X14.0 Y12.0 F1500.0 ;horizontal move
G1 F18000.0; feed for start of next move
G1 E223.7; extruder dwell
G1 F1500.0; feed for start of next move
G1 X16.2 Y14.3 E226.9 F3150.0 ;horizontal move
G1 X20.0 Y18.1 E232.3 ;horizontal move
G1 X21.4 Y19.6 E234.4 F2261.0 ;horizontal move
G1 X20.9 Y21.1 E235.9 F3004.6 ;horizontal move
G1 X20.8 Y21.4 E236.3 F2872.7 ;horizontal move
G1 X20.3 Y21.9 E237.0 F3150.0 ;horizontal move
G1 X19.2 Y22.7 E238.3 ;horizontal move
G1 X19.1 Y22.8 E238.5 F3105.7 ;horizontal move
G1 X19.0 E238.6 F3150.0 ;horizontal move
G1 X17.2 Y23.7 E240.6 ;horizontal move
G1 X17.1 E240.7 ;horizontal move
G1 X15.3 Y24.3 E242.6 ;horizontal move
G1 X15.2 E242.7 F3109.2 ;horizontal move
G1 X15.1 E242.8 F3150.0 ;horizontal move
G1 X12.7 Y24.5 E245.2 ;horizontal move
G1 X12.6 E245.3 ;horizontal move
G1 X10.5 Y24.2 E247.4 ;horizontal move
G1 X10.4 E247.5 F3115.4 ;horizontal move
G1 X8.5 Y23.6 E249.5 F3150.0 ;horizontal move
G1 X8.4 E249.6 F3112.0 ;horizontal move
G1 X8.3 Y23.5 E249.7 F3150.0 ;horizontal move
G1 X6.3 Y22.4 E252.0 ;horizontal move
G1 X6.2 Y22.3 E252.2 F3125.0 ;horizontal move
G1 X4.7 Y21.0 E254.1 F3150.0 ;horizontal move
G1 X4.6 Y20.9 E254.3 ;horizontal move
G1 X3.5 Y19.5 E256.1 ;horizontal move
G1 X3.4 Y19.4 E256.2 F3115.3 ;horizontal move
G1 X2.3 Y17.2 E258.7 F3150.0 ;horizontal move
G1 X2.2 Y17.1 E258.8 F3107.0 ;horizontal move
G1 Y17.0 E258.9 F3150.0 ;horizontal move
G1 X1.6 Y14.8 E261.2 ;horizontal move
G1 Y14.7 E261.3 F3119.1 ;horizontal move
G1 Y14.6 E261.4 F3150.0 ;horizontal move
G1 X1.5 Y12.4 E263.6 ;horizontal move
G1 Y12.3 E263.7 ;horizontal move
G1 X1.7 Y10.5 E265.5 ;horizontal move
G1 Y10.4 E265.6 F3115.4 ;horizontal move
G1 X1.8 E265.7 F3150.0 ;horizontal move
G1 X2.5 Y8.3 E267.9 ;horizontal move
G1 Y8.2 E268.0 F3100.9 ;horizontal move
G1 X2.6 Y8.1 E268.2 F3150.0 ;horizontal move
G1 X3.8 Y6.1 E270.5 ;horizontal move
G1 X3.9 E270.6 ;horizontal move
G1 X5.0 Y4.8 E272.3 ;horizontal move
G1 Y4.7 E272.4 F3101.9 ;horizontal move
G1 X5.1 Y4.6 E272.5 F3150.0 ;horizontal move
G1 X7.0 Y3.2 E274.9 ;horizontal move
G1 X7.1 E275.0 F3129.6 ;horizontal move
G1 X8.8 Y2.3 E276.9 F3150.0 ;horizontal move
G1 X8.9 Y2.2 E277.1 F3103.8 ;horizontal move
G1 X9.1 E277.3 F3150.0 ;horizontal move
G1 X11.3 Y1.6 E279.5 ;horizontal move
G1 X11.4 E279.6 F3113.5 ;horizontal move
G1 X11.5 E279.7 F3150.0 ;horizontal move
G1 X13.5 E281.7 ;horizontal move
G1 X15.1 Y1.7 E283.3 ;horizontal move
G1 X15.2 E283.4 F3107.6 ;horizontal move
G1 X15.3 E283.5 F3150.0 ;horizontal move
G1 X17.4 Y2.4 E285.8 ;horizontal move
G1 X17.5 E285.9 F3107.9 ;horizontal move
G1 X17.6 Y2.5 E286.0 F3150.0 ;horizontal move
G1 X19.7 Y3.7 E288.4 ;horizontal move
G1 X19.8 E288.5 F3126.2 ;horizontal move
G1 Y3.8 E288.6 F3150.0 ;horizontal move
G1 X21.2 Y4.9 E290.4 ;horizontal move
G1 X21.3 Y5.0 E290.5 ;horizontal move
G1 X22.5 Y6.5 E292.5 ;horizontal move
G1 X22.6 E292.6 F3117.4 ;horizontal move
G1 Y6.6 E292.7 F3150.0 ;horizontal move
G1 X23.7 Y8.7 E295.0 ;horizontal move
G1 X23.8 Y8.8 E295.2 F3105.2 ;horizontal move
G1 Y8.9 E295.3 F3150.0 ;horizontal move
G1 X24.3 Y11.1 E297.5 ;horizontal move
G1 X24.4 Y11.2 E297.7 F3114.9 ;horizontal move
G1 Y11.3 E297.8 F3150.0 ;horizontal move
G1 X24.5 Y13.8 E300.3 ;horizontal move
G1 Y13.9 E300.4 F3132.9 ;horizontal move
G1 X24.4 Y15.0 E301.5 F3150.0 ;horizontal move
G1 Y15.1 E301.6 F3116.9 ;horizontal move
G1 X24.3 E301.7 F3150.0 ;horizontal move
G1 X23.6 Y17.5 E304.2 ;horizontal move
G1 Y17.6 E304.3 F3107.3 ;horizontal move
G1 X23.5 Y17.7 E304.4 F3150.0 ;horizontal move
G1 X23.1 Y18.4 E305.2 ;horizontal move
G1 X22.3 Y19.7 E306.8 F2463.4 ;horizontal move
G1 X20.8 Y21.4 E309.0 F814.2 ;horizontal move
G1 X21.4 Y19.6 E310.9 F2287.5 ;horizontal move
G1 X20.0 Y18.1 E313.0 F3150.0 ;horizontal move
G1 X16.2 Y14.3 E318.3 ;horizontal move
G1 F18000.0; feed for start of next move
G1 E258.3; extruder retraction
G1 F1500.0; feed for start of next move
G1 X14.0 Y12.0 F3500.0 ;horizontal move
G1 F1500.0; feed for start of next move
G1 X16.9 Y15.0 F3500.0 ;horizontal move
G1 X18.5 Y16.6 ;horizontal move
G1 X21.4 Y19.6 F1500.0 ;horizontal move
G1 F18000.0; feed for start of next move
G1 E318.3; extruder dwell
G1 F1500.0; feed for start of next move
G1 X21.0 Y20.1 E319.0 F1979.6 ;horizontal move
G1 X20.5 Y20.6 E319.7 F1456.0 ;horizontal move
G1 X17.5 Y17.7 E323.9 F3500.0 ;horizontal move
G1 X8.3 Y8.5 E336.9 ;horizontal move
G1 X5.3 Y5.5 E341.1 F1500.0 ;horizontal move
G1 F18000.0; feed for start of next move
G1 E281.1; extruder retraction
G1 F1500.0; feed for start of next move
G1 X4.9 Y6.1 F2012.5 ;horizontal move
G1 X4.4 Y6.7 F1500.0 ;horizontal move
G1 F18000.0; feed for start of next move
G1 E341.1; extruder dwell
G1 F1500.0; feed for start of next move
G1 X7.4 Y9.7 E345.4 F3500.0 ;horizontal move
G1 X16.2 Y18.6 E357.9 ;horizontal move
G1 X19.3 Y21.7 E362.3 F1321.0 ;horizontal move
G1 X18.3 Y22.3 E363.4 F2130.3 ;horizontal move
G1 X18.1 Y22.4 E363.6 F1993.2 ;horizontal move
G1 X15.6 Y20.0 E367.1 F3500.0 ;horizontal move
G1 X6.6 Y11.0 E379.8 ;horizontal move
G1 X3.6 Y8.0 E384.1 F1500.0 ;horizontal move
G1 F18000.0; feed for start of next move
G1 E324.1; extruder retraction
G1 F1500.0; feed for start of next move
G1 X3.3 Y8.8 F2058.2 ;horizontal move
G1 X2.9 Y9.5 F1500.0 ;horizontal move
G1 F18000.0; feed for start of next move
G1 E384.1; extruder dwell
G1 F1500.0; feed for start of next move
G1 X5.9 Y12.4 E388.3 F3500.0 ;horizontal move
G1 X13.2 Y19.9 E398.7 ;horizontal move
G1 X16.4 Y23.1 E403.2 F1128.7 ;horizontal move
G1 X14.9 Y23.5 E404.8 F2269.6 ;horizontal move
G1 X12.8 Y21.4 E407.8 F3500.0 ;horizontal move
G1 X5.8 Y14.6 E417.5 ;horizontal move
G1 X2.5 Y11.3 E422.2 F1031.3 ;horizontal move
G1 X2.3 Y13.0 E423.9 F2293.9 ;horizontal move
G1 X4.3 Y15.1 E426.8 F3500.0 ;horizontal move
G1 X9.4 Y20.3 E434.1 ;horizontal move
G1 X12.8 Y23.7 E438.9 F908.9 ;horizontal move
G1 X10.5 Y23.4 E441.2 F2519.0 ;horizontal move
G1 X8.7 Y21.7 E443.7 F3500.0 ;horizontal move
G1 X6.1 Y19.1 E447.4 ;horizontal move
G1 X2.7 Y15.7 E452.2 F831.8 ;horizontal move
G1 X3.3 Y17.5 E454.1 F2290.3 ;horizontal move
G1 X4.1 Y18.9 E455.7 F3020.4 ;horizontal move
G1 X4.3 Y19.3 E456.1 F2856.4 ;horizontal move
G1 X6.0 Y21.1 E458.6 F1500.0 ;horizontal move
G1 F18000.0; feed for start of next move
G1 E398.6; extruder retraction
G1 F1500.0; feed for start of next move
G1 X8.8 Y18.0 F3500.0 ;horizontal move
G1 X11.2 Y15.1 ;horizontal move
G1 X14.0 Y12.0 F1500.0 ;horizontal move
G1 F18000.0; feed for start of next move
G1 E458.6; extruder dwell
G1 F1500.0; feed for start of next move
G1 X11.1 Y9.1 E462.7 F3500.0 ;horizontal move
G1 X9.6 Y7.6 E464.8 ;horizontal move
G1 X6.5 Y4.5 E469.2 F1348.8 ;horizontal move
G1 X7.5 Y3.9 E470.4 F2115.7 ;horizontal move
G1 X7.7 Y3.7 E470.7 F1923.1 ;horizontal move
G1 X10.3 Y6.2 E474.3 F3500.0 ;horizontal move
G1 X19.2 Y15.1 E486.9 ;horizontal move
G1 X22.3 Y18.2 E491.2 F1265.8 ;horizontal move
G1 X22.9 Y17.0 E492.6 F2203.3 ;horizontal move
G1 X23.0 Y16.9 E492.7 F2136.6 ;horizontal move
G1 X20.7 Y14.6 E496.0 F3500.0 ;horizontal move
G1 X12.2 Y6.0 E508.1 ;horizontal move
G1 X9.2 Y3.1 E512.2 F1500.0 ;horizontal move
G1 F18000.0; feed for start of next move
G1 E452.2; extruder retraction
G1 F1500.0; feed for start of next move
G1 X10.0 Y2.8 F2073.8 ;horizontal move
G1 X10.8 Y2.5 F1500.0 ;horizontal move
G1 F18000.0; feed for start of next move
G1 E512.2; extruder dwell
G1 F1500.0; feed for start of next move
G1 X13.8 Y5.5 E516.5 F3500.0 ;horizontal move
G1 X20.2 Y11.8 E525.5 ;horizontal move
G1 X23.5 Y15.1 E530.1 F1048.5 ;horizontal move
G1 X23.7 Y13.4 E531.8 F2305.4 ;horizontal move
G1 X21.7 Y11.3 E534.7 F3500.0 ;horizontal move
G1 X16.1 Y5.7 E542.7 ;horizontal move
G1 X12.8 Y2.3 E547.4 F943.0 ;horizontal move
G1 X14.9 Y2.5 E549.5 F2436.7 ;horizontal move
G1 X16.8 Y4.3 E552.1 F3500.0 ;horizontal move
G1 X20.1 Y7.6 E556.8 ;horizontal move
G1 X23.5 Y10.9 E561.5 F840.0 ;horizontal move
G1 X23.0 Y9.2 E563.3 F2253.5 ;horizontal move
G1 X22.3 Y7.8 E564.9 F2957.9 ;horizontal move
G1 X21.3 Y6.8 E566.3 F3481.2 ;horizontal move
G1 X18.5 Y3.8 E570.4 F1500.0 ;horizontal move
G1 F18000.0; feed for start of next move
G1 E510.4; extruder retraction
G1 F1500.0; feed for start of next move
;#!LAYER: 6/66
G28 X0 ;set x 0
G28 Y0 ;set y 0
G92 E0 ;zero the extruded length
G92 E0 ;zero the extruded length
G92 E0 ;zero the extruded length
T1; select new extruder
M113; set extruder to use pot for PWM
G92 E0 ;zero the extruded length
T0; select new extruder
M113; set extruder to use pot for PWM
G1 F50.0; feed for start of next move
G1 Z1.7 ;z move
T0; select new extruder
M113; set extruder to use pot for PWM
G1 F1500.0; feed for start of next move
G1 X-1.5 Y-1.5 F2709.5 ;horizontal move
G1 X-3.0 Y-3.0 F1500.0 ;horizontal move
G1 F18000.0; feed for start of next move
G1 E60.0; extruder dwell
G1 F1500.0; feed for start of next move
G1 F3500.0; feed for start of next move
G1 E85.0; extruder dwell
G1 F1500.0; feed for start of next move
G1 Y1.2 E89.2 F3500.0 ;horizontal move
G1 Y2.8 E90.8 ;horizontal move
G1 Y7.0 E95.0 F1500.0 ;horizontal move
G1 X-4.0 E96.0 F2156.4 ;horizontal move
G1 X-5.0 E97.0 F1500.0 ;horizontal move
G1 Y2.8 E101.2 F3500.0 ;horizontal move
G1 Y-0.8 E104.8 ;horizontal move
G1 Y-5.0 E109.0 F1500.0 ;horizontal move
G1 X-0.8 E113.2 F3500.0 ;horizontal move
G1 X12.8 E126.8 ;horizontal move
G1 X17.0 E131.0 F1500.0 ;horizontal move
G1 Y-4.0 E132.0 F2156.4 ;horizontal move
G1 Y-3.0 E133.0 F1500.0 ;horizontal move
G1 X12.8 E137.2 F3500.0 ;horizontal move
G1 X1.2 E148.8 ;horizontal move
G1 X-3.0 E153.0 F1500.0 ;horizontal move
G1 F18000.0; feed for start of next move
G1 E93.0; extruder retraction
G1 F1500.0; feed for start of next move
G1 X-0.1 Y-0.1 F3500.0 ;horizontal move
G1 X10.0 Y10.0 ;horizontal move
G1 X12.9 Y12.9 F1500.0 ;horizontal move
G1 F18000.0; feed for start of next move
G1 E153.0; extruder dwell
G1 F1500.0; feed for start of next move
G1 X10.6 Y15.2 E156.3 F3150.0 ;horizontal move
G1 X7.1 Y18.7 E161.2 ;horizontal move
G1 X5.6 Y20.2 E163.3 F2211.6 ;horizontal move
G1 X4.8 Y21.1 E164.5 F1391.5 ;horizontal move
G1 X3.4 Y19.3 E166.8 F2732.9 ;horizontal move
G1 X2.9 Y18.4 E167.8 F3150.0 ;horizontal move
G1 X2.3 Y17.3 E169.1 ;horizontal move
G1 X2.2 Y17.2 E169.2 F3096.3 ;horizontal move
G1 Y17.0 E169.4 F3150.0 ;horizontal move
G1 X1.6 Y14.5 E172.0 ;horizontal move
G1 Y14.3 E172.2 F3093.8 ;horizontal move
G1 Y14.2 E172.3 F3150.0 ;horizontal move
G1 X1.7 Y10.8 E175.7 ;horizontal move
G1 Y10.6 E175.9 F3073.9 ;horizontal move
G1 Y10.4 E176.1 F3150.0 ;horizontal move
G1 X2.5 Y8.2 E178.4 ;horizontal move
G1 X2.6 Y8.1 E178.6 ;horizontal move
G1 X3.7 Y6.3 E180.7 ;horizontal move
G1 Y6.2 E180.8 F3114.7 ;horizontal move
G1 X3.8 Y6.1 E180.9 F3150.0 ;horizontal move
G1 X5.4 Y4.4 E183.3 ;horizontal move
G1 X5.5 Y4.3 E183.4 F3134.3 ;horizontal move
G1 X6.6 Y3.4 E184.8 F3150.0 ;horizontal move
G1 X6.7 Y3.3 E185.0 F3103.4 ;horizontal move
G1 X6.8 Y3.2 E185.1 F3150.0 ;horizontal move
G1 X8.9 Y2.3 E187.4 ;horizontal move
G1 X9.0 Y2.2 E187.5 F3116.1 ;horizontal move
G1 X9.1 E187.6 F3150.0 ;horizontal move
G1 X11.4 Y1.6 E190.0 ;horizontal move
G1 X11.5 E190.1 F3124.3 ;horizontal move
G1 X13.3 Y1.5 E191.9 F3150.0 ;horizontal move
G1 X13.4 E192.0 F3126.2 ;horizontal move
G1 X15.5 Y1.7 E194.1 F3150.0 ;horizontal move
G1 X15.6 E194.2 F3103.2 ;horizontal move
G1 X15.7 Y1.8 E194.4 F3150.0 ;horizontal move
G1 X17.7 Y2.5 E196.5 ;horizontal move
G1 X17.8 E196.6 F3127.4 ;horizontal move
G1 X19.6 Y3.6 E198.7 F3150.0 ;horizontal move
G1 X19.7 E198.8 F3121.5 ;horizontal move
G1 X21.1 Y4.8 E200.6 F3150.0 ;horizontal move
G1 X21.2 Y4.9 E200.8 F3115.5 ;horizontal move
G1 X22.7 Y6.8 E203.2 F3150.0 ;horizontal move
G1 X22.8 Y6.9 E203.4 ;horizontal move
G1 X23.7 Y8.7 E205.4 ;horizontal move
G1 X23.8 Y8.8 E205.5 F3108.6 ;horizontal move
G1 Y8.9 E205.6 F3150.0 ;horizontal move
G1 X24.3 Y10.9 E207.7 ;horizontal move
G1 X24.4 Y11.0 E207.8 F3120.0 ;horizontal move
G1 Y11.1 E207.9 F3150.0 ;horizontal move
G1 X24.5 Y13.4 E210.2 ;horizontal move
G1 Y13.5 E210.3 ;horizontal move
G1 X24.3 Y15.3 E212.1 ;horizontal move
G1 Y15.4 E212.2 F3127.7 ;horizontal move
G1 X23.7 Y17.4 E214.3 F3150.0 ;horizontal move
G1 X23.6 Y17.6 E214.5 F3079.0 ;horizontal move
G1 X23.5 Y17.7 E214.7 F3150.0 ;horizontal move
G1 X21.7 Y20.5 E218.0 ;horizontal move
G1 Y20.6 E218.1 F3125.7 ;horizontal move
G1 X21.6 E218.2 F3150.0 ;horizontal move
G1 X20.7 Y21.6 E219.5 ;horizontal move
G1 X19.5 Y22.5 E221.0 ;horizontal move
G1 X19.4 Y22.6 E221.2 F3130.5 ;horizontal move
G1 X17.4 Y23.7 E223.5 F3150.0 ;horizontal move
G1 X17.3 E223.6 F3116.1 ;horizontal move
G1 X15.5 Y24.3 E225.5 F3150.0 ;horizontal move
G1 X15.4 E225.6 F3105.4 ;horizontal move
G1 X15.2 E225.8 F3150.0 ;horizontal move
G1 X12.5 Y24.5 E228.5 ;horizontal move
G1 X12.4 E228.6 F3130.3 ;horizontal move
G1 X10.6 Y24.3 E230.4 F3150.0 ;horizontal move
G1 X10.5 E230.5 F3103.6 ;horizontal move
G1 X10.4 E230.6 F3150.0 ;horizontal move
G1 X8.7 Y23.7 E232.4 ;horizontal move
G1 X8.6 Y23.6 E232.5 F3117.6 ;horizontal move
G1 X8.5 E232.6 F3150.0 ;horizontal move
G1 X7.5 Y23.0 E233.8 ;horizontal move
G1 X6.1 Y22.2 E235.4 F2489.8 ;horizontal move
G1 X4.8 Y21.1 E237.1 F1451.1 ;horizontal move
G1 X5.6 Y20.2 E238.3 F2249.5 ;horizontal move
G1 X7.1 Y18.8 E240.4 F3150.0 ;horizontal move
G1 X10.6 Y15.2 E245.4 ;horizontal move
G1 F18000.0; feed for start of next move
G1 E185.4; extruder retraction
G1 F1500.0; feed for start of next move
G1 X12.9 Y12.9 F3500.0 ;horizontal move
G1 F1500.0; feed for start of next move
G1 X13.3 Y13.3 F1854.2 ;horizontal move
G1 X13.6 Y13.6 F1500.0 ;horizontal move
G1 F18000.0; feed for start of next move
G1 E245.4; extruder dwell
G1 F1500.0; feed for start of next move
G1 X15.9 Y11.3 E248.6 F3150.0 ;horizontal move
G1 X18.9 Y8.3 E252.9 ;horizontal move
G1 X20.8 Y6.3 E255.6 F1822.3 ;horizontal move
G1 X21.2 Y5.6 E256.5 F1178.4 ;horizontal move
G1 X22.3 Y7.0 E258.2 F2365.3 ;horizontal move
G1 X23.1 Y8.6 E260.0 F3150.0 ;horizontal move
G1 X23.3 Y8.9 E260.4 ;horizontal move
G1 Y9.0 E260.5 F3110.0 ;horizontal move
G1 X23.4 Y9.1 E260.6 F3150.0 ;horizontal move
G1 X23.9 Y10.9 E262.5 ;horizontal move
G1 Y11.0 E262.6 F3123.9 ;horizontal move
G1 X24.1 Y12.9 E264.5 F3150.0 ;horizontal move
G1 Y13.0 E264.6 F3119.4 ;horizontal move
G1 Y13.1 E264.7 F3150.0 ;horizontal move
G1 X23.8 Y15.2 E266.8 ;horizontal move
G1 Y15.3 E266.9 F3117.2 ;horizontal move
G1 Y15.4 E267.0 F3150.0 ;horizontal move
G1 X23.2 Y17.3 E269.0 ;horizontal move
G1 Y17.4 E269.1 F3111.0 ;horizontal move
G1 X23.1 Y17.5 E269.3 F3150.0 ;horizontal move
G1 X22.1 Y19.3 E271.3 ;horizontal move
G1 X22.0 Y19.4 E271.5 F3119.8 ;horizontal move
G1 X20.5 Y21.1 E273.7 F3150.0 ;horizontal move
G1 Y21.2 E273.8 F3119.5 ;horizontal move
G1 X20.4 E273.9 F3150.0 ;horizontal move
G1 X19.1 Y22.2 E275.6 ;horizontal move
G1 Y22.3 E275.7 F3120.8 ;horizontal move
G1 X19.0 E275.8 F3150.0 ;horizontal move
G1 X17.2 Y23.2 E277.8 ;horizontal move
G1 X17.1 Y23.3 E277.9 F3110.8 ;horizontal move
G1 X17.0 E278.0 F3150.0 ;horizontal move
G1 X14.9 Y23.9 E280.2 ;horizontal move
G1 X14.8 E280.3 F3131.3 ;horizontal move
G1 X13.2 Y24.0 E281.9 F3150.0 ;horizontal move
G1 X13.1 Y24.1 E282.0 F3112.0 ;horizontal move
G1 X13.0 Y24.0 E282.2 F3150.0 ;horizontal move
G1 X10.5 Y23.8 E284.7 ;horizontal move
G1 X10.4 E284.8 F3103.8 ;horizontal move
G1 X10.3 Y23.7 E284.9 F3150.0 ;horizontal move
G1 X8.9 Y23.2 E286.4 ;horizontal move
G1 X8.8 E286.5 ;horizontal move
G1 X7.0 Y22.2 E288.6 ;horizontal move
G1 X6.9 E288.7 F3116.1 ;horizontal move
G1 X6.8 Y22.1 E288.8 F3150.0 ;horizontal move
G1 X5.1 Y20.8 E291.0 ;horizontal move
G1 X5.0 Y20.7 E291.1 F3112.8 ;horizontal move
G1 Y20.6 E291.2 F3150.0 ;horizontal move
G1 X3.8 Y19.2 E293.0 ;horizontal move
G1 Y19.1 E293.1 F3115.4 ;horizontal move
G1 X3.7 E293.2 F3150.0 ;horizontal move
G1 X2.7 Y17.0 E295.6 ;horizontal move
G1 X2.6 Y16.9 E295.7 F3114.4 ;horizontal move
G1 Y16.8 E295.8 F3150.0 ;horizontal move
G1 X2.1 Y15.1 E297.6 ;horizontal move
G1 Y14.9 E297.8 F3085.7 ;horizontal move
G1 Y14.8 E297.9 F3150.0 ;horizontal move
G1 X2.2 Y10.8 E301.9 ;horizontal move
G1 Y10.6 E302.1 F3062.5 ;horizontal move
G1 Y10.4 E302.3 F3150.0 ;horizontal move
G1 X2.8 Y8.8 E304.0 ;horizontal move
G1 Y8.7 E304.1 ;horizontal move
G1 X4.0 Y6.6 E306.5 ;horizontal move
G1 X4.1 Y6.5 E306.7 F3108.0 ;horizontal move
G1 X4.2 Y6.4 E306.8 F3150.0 ;horizontal move
G1 X5.6 Y4.8 E308.9 ;horizontal move
G1 Y4.7 E309.0 F3122.7 ;horizontal move
G1 X5.7 E309.1 F3150.0 ;horizontal move
G1 X6.9 Y3.8 E310.6 ;horizontal move
G1 X7.0 Y3.7 E310.8 F3119.0 ;horizontal move
G1 X8.8 Y2.8 E312.8 F3150.0 ;horizontal move
G1 X8.9 E312.9 F3110.7 ;horizontal move
G1 X9.0 Y2.7 E313.0 F3150.0 ;horizontal move
G1 X11.5 Y2.1 E315.6 ;horizontal move
G1 X11.6 E315.7 ;horizontal move
G1 X13.2 Y2.0 E317.3 ;horizontal move
G1 X13.3 E317.4 F3124.4 ;horizontal move
G1 X15.4 Y2.2 E319.5 F3150.0 ;horizontal move
G1 X15.5 E319.6 F3105.9 ;horizontal move
G1 X15.6 Y2.3 E319.7 F3150.0 ;horizontal move
G1 X17.4 Y2.9 E321.6 ;horizontal move
G1 X17.5 E321.7 F3119.5 ;horizontal move
G1 X17.6 Y3.0 E321.9 F3150.0 ;horizontal move
G1 X19.2 Y3.9 E323.7 ;horizontal move
G1 X19.6 Y4.1 E324.2 F2987.1 ;horizontal move
G1 X21.2 Y5.6 E326.4 F1929.0 ;horizontal move
G1 X20.8 Y6.3 E327.2 F2377.6 ;horizontal move
G1 X19.6 Y7.6 E328.9 F3150.0 ;horizontal move
G1 X15.9 Y11.3 E334.2 ;horizontal move
G1 F18000.0; feed for start of next move
G1 E274.2; extruder retraction
G1 F1500.0; feed for start of next move
G1 X13.6 Y13.6 F3500.0 ;horizontal move
G1 F1500.0; feed for start of next move
G1 X16.5 Y10.6 F3500.0 ;horizontal move
G1 X17.9 Y9.3 ;horizontal move
G1 X20.8 Y6.3 F1500.0 ;horizontal move
G1 F18000.0; feed for start of next move
G1 E334.2; extruder dwell
G1 F1500.0; feed for start of next move
G1 X20.7 Y6.2 E334.3 F1611.4 ;horizontal move
G1 X20.6 Y6.0 E334.5 F1421.8 ;horizontal move
G1 X17.5 Y9.0 E338.8 F3500.0 ;horizontal move
G1 X8.7 Y17.8 E351.3 ;horizontal move
G1 X5.9 Y20.5 E355.2 F1733.2 ;horizontal move
G1 Y20.4 E355.3 F1757.3 ;horizontal move
G1 X5.6 Y20.2 E355.6 F1500.0 ;horizontal move
G1 F18000.0; feed for start of next move
G1 E295.6; extruder retraction
G1 F1500.0; feed for start of next move
G1 X7.3 Y21.3 F2666.4 ;horizontal move
G1 X9.0 Y22.4 F1500.0 ;horizontal move
G1 F18000.0; feed for start of next move
G1 E355.6; extruder dwell
G1 F1500.0; feed for start of next move
G1 X11.9 Y19.5 E359.7 F3500.0 ;horizontal move
G1 X19.7 Y11.7 E370.8 ;horizontal move
G1 X22.4 Y8.9 E374.7 F1691.8 ;horizontal move
G1 X22.2 Y8.5 E375.1 F1304.2 ;horizontal move
G1 X19.1 Y11.6 E379.5 F3500.0 ;horizontal move
G1 X11.2 Y19.4 E390.6 ;horizontal move
G1 X8.5 Y22.2 E394.5 F1696.3 ;horizontal move
G1 X8.1 Y22.0 E394.9 F1356.1 ;horizontal move
G1 X11.2 Y18.9 E399.3 F3500.0 ;horizontal move
G1 X19.2 Y10.8 E410.7 ;horizontal move
G1 X22.0 Y8.0 E414.7 F1696.2 ;horizontal move
G1 X21.7 Y7.6 E415.2 F1356.0 ;horizontal move
G1 X18.6 Y10.7 E419.5 F3500.0 ;horizontal move
G1 X10.4 Y18.8 E431.1 ;horizontal move
G1 X7.6 Y21.7 E435.1 F1603.8 ;horizontal move
G1 X7.2 Y21.5 E435.6 F1267.3 ;horizontal move
G1 X10.3 Y18.3 E440.0 F3500.0 ;horizontal move
G1 X18.7 Y9.8 E452.0 ;horizontal move
G1 X21.4 Y7.1 E455.8 F1714.4 ;horizontal move
G1 X21.2 Y6.8 E456.1 F1420.3 ;horizontal move
G1 X18.2 Y9.8 E460.4 F3500.0 ;horizontal move
G1 X9.5 Y18.4 E472.6 ;horizontal move
G1 X6.7 Y21.1 E476.5 F1715.7 ;horizontal move
G1 X6.4 Y20.9 E476.9 F1421.8 ;horizontal move
G1 X9.4 Y17.8 E481.2 F3500.0 ;horizontal move
G1 X10.7 Y16.6 E482.9 ;horizontal move
G1 X13.6 Y13.6 E487.1 F1500.0 ;horizontal move
G1 F18000.0; feed for start of next move
G1 E427.1; extruder retraction
G1 F1500.0; feed for start of next move
G1 X13.3 Y13.3 F1854.2 ;horizontal move
G1 X12.9 Y12.9 F1500.0 ;horizontal move
G1 F18000.0; feed for start of next move
G1 E487.1; extruder dwell
G1 F1500.0; feed for start of next move
G1 X15.8 Y9.9 E491.3 F3500.0 ;horizontal move
G1 X17.2 Y8.5 E493.3 ;horizontal move
G1 X20.1 Y5.6 E497.4 F1512.4 ;horizontal move
G1 X20.0 Y5.5 E497.5 F1643.4 ;horizontal move
G1 X19.9 Y5.3 E497.7 F1516.5 ;horizontal move
G1 X16.9 Y8.2 E501.9 F3500.0 ;horizontal move
G1 X8.3 Y16.8 E514.1 ;horizontal move
G1 X5.2 Y19.7 E518.3 F1423.3 ;horizontal move
G1 X5.0 Y19.4 E518.7 F1717.0 ;horizontal move
G1 X7.7 Y16.7 E522.5 F3500.0 ;horizontal move
G1 X16.3 Y8.0 E534.7 ;horizontal move
G1 X19.3 Y4.9 E539.0 F1421.8 ;horizontal move
G1 X19.0 Y4.7 E539.4 F1715.7 ;horizontal move
G1 X16.3 Y7.4 E543.2 F3500.0 ;horizontal move
G1 X7.6 Y16.0 E555.5 ;horizontal move
G1 X4.6 Y19.0 E559.7 F1420.3 ;horizontal move
G1 X4.4 Y18.7 E560.1 F1714.4 ;horizontal move
G1 X7.1 Y15.9 E563.9 F3500.0 ;horizontal move
G1 X15.4 Y7.5 E575.8 ;horizontal move
G1 X18.5 Y4.4 E580.1 F1305.7 ;horizontal move
G1 X18.1 Y4.1 E580.6 F1692.9 ;horizontal move
G1 X15.3 Y6.9 E584.6 F3500.0 ;horizontal move
G1 X7.2 Y14.9 E596.0 ;horizontal move
G1 X4.1 Y18.1 E600.4 F1265.9 ;horizontal move
G1 X3.9 Y17.7 E600.9 F1602.6 ;horizontal move
G1 X6.7 Y14.8 E604.9 F3500.0 ;horizontal move
G1 X14.5 Y7.0 E616.0 ;horizontal move
G1 X17.6 Y3.8 E620.4 F1267.5 ;horizontal move
G1 X17.2 Y3.7 E620.8 F1603.9 ;horizontal move
G1 X14.4 Y6.5 E624.8 F3500.0 ;horizontal move
G1 X6.8 Y13.9 E635.4 ;horizontal move
G1 X3.7 Y17.1 E639.8 F1224.6 ;horizontal move
G1 X3.5 Y16.7 E640.3 F1611.3 ;horizontal move
G1 X6.3 Y13.8 E644.3 F3500.0 ;horizontal move
G1 X13.7 Y6.4 E654.8 ;horizontal move
G1 X16.7 Y3.4 E659.0 F1500.0 ;horizontal move
G1 F18000.0; feed for start of next move
G1 E599.0; extruder retraction
G1 F1500.0; feed for start of next move
G1 X16.4 F1726.2 ;horizontal move
G1 X16.1 Y3.3 F1500.0 ;horizontal move
G1 F18000.0; feed for start of next move
G1 E659.0; extruder dwell
G1 F1500.0; feed for start of next move
G1 X13.2 Y6.2 E663.1 F3500.0 ;horizontal move
G1 X6.5 Y12.9 E672.6 ;horizontal move
G1 X3.2 Y16.1 E677.2 F1138.8 ;horizontal move
G1 X3.1 Y15.7 E677.6 F1531.4 ;horizontal move
G1 X6.0 Y12.7 E681.8 F3500.0 ;horizontal move
G1 X12.7 Y6.0 E691.3 ;horizontal move
G1 X15.6 Y3.1 E695.4 F1500.0 ;horizontal move
G1 F18000.0; feed for start of next move
G1 E635.4; extruder retraction
G1 F1500.0; feed for start of next move
G1 X15.4 Y3.0 F1701.8 ;horizontal move
G1 X15.1 Y2.9 F1500.0 ;horizontal move
G1 F18000.0; feed for start of next move
G1 E695.4; extruder dwell
G1 F1500.0; feed for start of next move
G1 X12.1 Y5.9 E699.6 F3500.0 ;horizontal move
G1 X6.2 Y11.7 E707.9 ;horizontal move
G1 X2.9 Y14.9 E712.5 F1139.0 ;horizontal move
G1 X2.8 Y14.5 E712.9 F1531.6 ;horizontal move
G1 X5.7 Y11.6 E717.0 F3500.0 ;horizontal move
G1 X11.5 Y5.8 E725.2 ;horizontal move
G1 X14.5 Y2.8 E729.4 F1500.0 ;horizontal move
G1 F18000.0; feed for start of next move
G1 E669.4; extruder retraction
G1 F1500.0; feed for start of next move
G1 X14.2 F1757.8 ;horizontal move
G1 X13.8 F1500.0 ;horizontal move
G1 F18000.0; feed for start of next move
G1 E729.4; extruder dwell
G1 F1500.0; feed for start of next move
G1 X10.8 Y5.8 E733.7 F3500.0 ;horizontal move
G1 X6.1 Y10.5 E740.3 ;horizontal move
G1 X2.8 Y13.7 E744.9 F1034.7 ;horizontal move
G1 X2.7 Y13.2 E745.4 F1541.0 ;horizontal move
G1 X5.6 Y10.3 E749.5 F3500.0 ;horizontal move
G1 X9.7 Y6.1 E755.4 ;horizontal move
G1 X13.1 Y2.7 E760.2 F922.3 ;horizontal move
G1 X12.5 Y2.8 E760.8 F1515.8 ;horizontal move
G1 X9.5 Y5.7 E765.0 F3500.0 ;horizontal move
G1 X6.1 Y9.0 E769.7 ;horizontal move
G1 X2.8 Y12.3 E774.4 F924.0 ;horizontal move
G1 Y11.7 E775.0 F1516.9 ;horizontal move
G1 X5.7 Y8.7 E779.2 F3500.0 ;horizontal move
G1 X8.1 Y6.3 E782.6 ;horizontal move
G1 X11.5 Y2.9 E787.4 F887.8 ;horizontal move
G1 X10.8 Y3.0 E788.1 F1548.6 ;horizontal move
G1 X7.9 Y5.9 E792.2 F3500.0 ;horizontal move
G1 X5.9 Y7.9 E795.0 ;horizontal move
G1 X3.0 Y10.8 E799.1 F1500.0 ;horizontal move
G1 F18000.0; feed for start of next move
G1 E739.1; extruder retraction
G1 F1500.0; feed for start of next move
G1 X3.8 Y9.0 F2662.2 ;horizontal move
G1 X4.6 Y7.1 F1500.0 ;horizontal move
G1 F18000.0; feed for start of next move
G1 E799.1; extruder dwell
G1 F1500.0; feed for start of next move
G1 X6.1 Y5.6 E801.2 F2702.0 ;horizontal move
G1 X7.1 Y4.6 E802.6 F1974.6 ;horizontal move
G1 X8.3 Y4.0 E804.0 F782.5 ;horizontal move
G1 X5.6 Y6.7 E807.8 F3119.9 ;horizontal move
G1 X3.7 Y8.7 E810.6 F1723.3 ;horizontal move
G1 X3.4 Y9.6 E811.5 F832.4 ;horizontal move
G1 X6.8 Y6.2 E816.3 F3500.0 ;horizontal move
G1 X9.8 Y3.3 E820.5 F1500.0 ;horizontal move
G1 F18000.0; feed for start of next move
G1 E760.5; extruder retraction
G1 F1500.0; feed for start of next move
G1 X13.2 Y5.8 F3500.0 ;horizontal move
G1 X19.8 Y10.7 ;horizontal move
G1 X23.2 Y13.2 F1500.0 ;horizontal move
G1 F18000.0; feed for start of next move
G1 E820.5; extruder dwell
G1 F1500.0; feed for start of next move
G1 X20.3 Y16.1 E824.6 F3500.0 ;horizontal move
G1 X15.9 Y20.4 E830.7 ;horizontal move
G1 X13.0 Y23.3 E834.8 F1541.0 ;horizontal move
G1 X12.5 Y23.2 E835.4 F1034.7 ;horizontal move
G1 X15.8 Y19.9 E840.0 F3500.0 ;horizontal move
G1 X20.3 Y15.3 E846.5 ;horizontal move
G1 X23.2 Y12.4 E850.6 F1500.5 ;horizontal move
G1 Y11.9 E851.1 F1044.2 ;horizontal move
G1 X19.8 Y15.1 E855.7 F3500.0 ;horizontal move
G1 X14.7 Y20.2 E862.9 ;horizontal move
G1 X11.7 Y23.2 E867.2 F1500.3 ;horizontal move
G1 X11.2 Y23.1 E867.7 F1044.0 ;horizontal move
G1 X14.5 Y19.8 E872.4 F3500.0 ;horizontal move
G1 X20.2 Y14.0 E880.5 ;horizontal move
G1 X23.1 Y11.0 E884.7 F1529.2 ;horizontal move
G1 X23.0 Y10.6 E885.1 F1135.8 ;horizontal move
G1 X19.8 Y13.8 E889.6 F3500.0 ;horizontal move
G1 X13.6 Y20.0 E898.4 ;horizontal move
G1 X10.6 Y23.0 E902.6 F1500.0 ;horizontal move
G1 F18000.0; feed for start of next move
G1 E842.6; extruder retraction
G1 F1500.0; feed for start of next move
G1 X10.4 Y22.9 F1701.8 ;horizontal move
G1 X10.1 Y22.8 F1500.0 ;horizontal move
G1 F18000.0; feed for start of next move
G1 E902.6; extruder dwell
G1 F1500.0; feed for start of next move
G1 X13.0 Y19.8 E906.8 F3500.0 ;horizontal move
G1 X20.0 Y12.9 E916.6 ;horizontal move
G1 X22.8 Y10.0 E920.6 F1626.5 ;horizontal move
G1 X22.6 Y9.5 E921.2 F1189.6 ;horizontal move
G1 X19.4 Y12.7 E925.7 F3500.0 ;horizontal move
G1 X12.5 Y19.7 E935.5 ;horizontal move
G1 X9.5 Y22.6 E939.7 F1500.0 ;horizontal move
G1 F18000.0; feed for start of next move
G1 E879.7; extruder retraction
G1 F1500.0; feed for start of next move
G1 X11.7 Y22.9 F2753.0 ;horizontal move
G1 X13.9 Y23.2 F1500.0 ;horizontal move
G1 F18000.0; feed for start of next move
G1 E939.7; extruder dwell
G1 F1500.0; feed for start of next move
G1 X16.8 Y20.3 E943.8 F3500.0 ;horizontal move
G1 X19.8 Y17.3 E948.1 ;horizontal move
G1 X23.2 Y14.0 E952.8 F921.1 ;horizontal move
G1 X23.1 Y14.6 E953.4 F1515.1 ;horizontal move
